shaders/LUTs/misc/custom_4_3_2.cube
TITLE "Generated by Resolve"
# Add the options shown below to your cube file depending on what you need for your LUT to work (especially colorspace and gamma correction).
# MAKE SURE TO ADD EXACTLY ONE "# " BEFORE ALL SETTINGS OR THIS FILE MAY NOT WORK PROPERLY.
#   output mapping - 0:none 1:divide by 16 2:reinhard 3:Hable 4:ACES/UE4 (default)
# The following setting has two hashtags and is therefore disabled
## viewing transform: 4
#   output mapping - 0:sRGB 1:ACEScg(raw) 2:ACES2065-1
# output colorspace: 1
# gamma correction: on
LUT_3D_SIZE 33
0.000640879 0.000518807 0.00120546
0.024918 0 0.0009308
0.0638895 0 0.000427253
0.106477 0 0
0.148959 0 0
0.191302 0 0
0.233845 0 0
0.276997 0 0
0.319905 0 0
0.363256 0 0
0.407294 0 0
0.451438 0 0
0.496681 0 0
0.54316 0 0
0.589807 0 0
0.636606 0 0
0.68423 0 0
0.731853 0 0
0.780484 0 0
0.827909 0 0
0.874723 0 0
0.919081 0 0
0.963333 0 0
1 0 0
1 0 0
1 0 0
1 0 0
1 0 0
1 0 0
1 0 0
1 0 0
1 0 0
1 0 0
0 0.0128481 0
0.0168917 0.0131991 0
0.0541543 0.011368 0
0.0955215 0.00646983 0
0.135119 0 0
0.173602 0 0
0.211063 0 0
0.247532 0 0
0.284337 0 0
0.32108 0 0
0.357015 0 0
0.392538 0 0
0.426108 0 0
0.462089 0 0
0.498741 0 0
0.536004 0 0
0.57409 0 0
0.612039 0 0
0.650767 0 0
0.68893 0 0
0.727367 0 0
0.766888 0 0
0.805753 0 0
0.844541 0 0
0.882338 0 0
0.919188 0 0
0.954284 0 0
0.989715 0 0
1 0 0
1 0 0
1 0 0
1 0 0
1 0 0
0 0.0395819 0
0.00549325 0.0404212 0
0.0384527 0.0386664 0
0.0840009 0.0335546 0
0.125429 0.0264286 0
0.164996 0.0173342 0
0.203265 0.00624094 0
0.241947 0 0
0.280324 0 0
0.318776 0 0
0.357321 0 0
0.396216 0 0
0.434882 0 0
0.474723 0 0
0.515312 0 0
0.556115 0 0
0.597711 0 0
0.639109 0 0
0.680385 0 0
0.722377 0 0
0.765591 0 0
0.808362 0 0
0.849348 0 0
0.88957 0 0
0.929427 0 0
0.968582 0 0
1 0 0
1 0 0
1 0 0
1 0 0
1 0 0
1 0 0
1 0 0
0 0.0703136 0
0 0.0665293 0
0.0164645 0.0711528 0
0.0668345 0.0695048 0
0.114321 0.0648508 0
0.15729 0.0581521 0
0.197894 0.0489509 0
0.238697 0.0357977 0
0.278279 0.0192721 0
0.318135 0 0
0.357839 0 0
0.397742 0 0
0.437766 0 0
0.478782 0 0
0.519966 0 0
0.5626 0 0
0.60531 0 0
0.647807 0 0
0.690318 0 0
0.733593 0 0
0.77792 0 0
0.821454 0 0
0.862745 0 0
0.904234 0 0
0.944808 0 0
0.98468 0 0
1 0 0
1 0 0
1 0 0
1 0 0
1 0 0
1 0 0
1 0 0
0 0.0932937 0
0 0.0941939 0
0 0.101488 0
0.0411841 0.102922 0
0.0969863 0.100877 0
0.145296 0.0964065 0
0.188983 0.0904402 0
0.231632 0.0824292 0
0.273121 0.072221 0
0.314382 0.0581674 0
0.354772 0.0383307 0
0.395712 0.0121004 0
0.43679 0 0
0.478004 0 0
0.520592 0 0
0.563928 0 0
0.60647 0 0
0.649561 0 0
0.693568 0 0
0.736492 0 0
0.781323 0 0
0.825574 0 0
0.868116 0 0
0.908965 0 0
0.94992 0 0
0.990127 0 0
1 0 0
1 0 0
1 0 0
1 0 0
1 0 0
1 0 0
1 0 0
0 0.118715 0
0 0.121477 0
0 0.130709 0
0.0113832 0.133822 0
0.0724193 0.134295 0
0.127642 0.131777 0
0.176074 0.127413 0
0.221973 0.121843 0
0.265217 0.114672 0
0.307942 0.105486 0
0.350118 0.0942245 0
0.39176 0.0793469 0
0.433921 0.0591592 0
0.476295 0.0279698 0
0.51899 0 0
0.562905 0 0
0.606775 0 0
0.6495 0 0
0.69395 0 0
0.738308 0 0
0.782971 0 0
0.827222 0 0
0.870054 0 0
0.912215 0 0
0.95346 0 0
0.992935 0 0
1 0 0
1 0 0
1 0 0
1 0 0
1 0 0
1 0 0
1 0 0
0 0.144091 0
0 0.148135 0
0 0.159442 0
0 0.163439 0
0.0408484 0.165103 0
0.103883 0.165209 0
0.158755 0.162249 0
0.209003 0.157961 0
0.255039 0.152438 0
0.299748 0.14548 0
0.343404 0.137377 0
0.386328 0.127123 0
0.429572 0.114611 0
0.473182 0.0984512 0
0.51693 0.0763714 0
0.5617 0.0426795 0
0.605554 0 0
0.649378 0 0
0.694316 0 0
0.739132 0 0
0.783948 0 0
0.828794 0 0
0.871885 0 0
0.914366 0 0
0.95552 0 0
0.995605 0 0
1 0 0
1 0 0
1 0 0
1 0 0
1 0 0
1 0 0
1 0 0
0 0.169726 0
0 0.174868 0
0 0.188205 0
0 0.193164 0
0 0.195987 0
0.0754253 0.197223 0
0.134157 0.196918 0
0.190661 0.193439 0
0.240711 0.188983 0
0.288518 0.183673 0
0.333654 0.177111 0
0.378561 0.169497 0
0.422415 0.160052 0
0.467094 0.148806 0
0.512398 0.134768 0
0.557473 0.116655 0
0.602975 0.0932631 0
0.648066 0.059617 0
0.692622 0.002121 0
0.737819 0 0
0.783856 0 0
0.828748 0 0
0.871534 0 0
0.91426 0 0
0.956191 0 0
0.997147 0 0
1 0 0
1 0 0
1 0 0
1 0 0
1 0 0
1 0 0
1 0 0
0 0.195254 0
0 0.201633 0
0 0.216922 0
0 0.222721 0
0 0.226261 0
0.0274968 0.228092 0
0.108064 0.228992 0
0.166476 0.228153 0
0.222873 0.224445 0
0.274495 0.220081 0
0.322194 0.214649 0
0.368902 0.208423 0
0.414389 0.200916 0
0.460304 0.192157 0
0.505913 0.181308 0
0.552682 0.168429 0
0.5991 0.152941 0
0.644221 0.1337 0
0.690944 0.108507 0
0.737285 0.0730907 0
0.783688 0.00872816 0
0.828733 0 0
0.872374 0 0
0.915511 0 0
0.957595 0 0
0.997711 0 0
1 0 0
1 0 0
1 0 0
1 0 0
1 0 0
1 0 0
1 0 0
0 0.220813 0
0 0.228351 0
0 0.245518 0
0 0.25211 0
0 0.25626 0
0 0.258976 0
0.0685283 0.260456 0
0.141009 0.26067 0
0.198917 0.259312 0
0.256016 0.255497 0
0.307378 0.251026 0
0.356649 0.245884 0
0.40383 0.239521 0
0.451179 0.232364 0
0.498024 0.223545 0
0.5458 0.213397 0
0.593042 0.201587 0
0.638987 0.187488 0
0.686427 0.170489 0
0.733639 0.149859 0
0.780591 0.122591 0
0.827695 0.0851301 0
0.872099 0.0218509 0
0.915434 0 0
0.957885 0 0
0.998184 0 0
1 0 0
1 0 0
1 0 0
1 0 0
1 0 0
1 0 0
1 0 0
0 0.246067 0
0 0.255131 0
0 0.273976 0
0 0.281376 0
0 0.286091 0
0 0.289357 0
0 0.291447 0
0.107256 0.292393 0
0.173526 0.292363 0
0.233066 0.290623 0
0.289265 0.286564 0
0.341833 0.2822 0
0.391379 0.276707 0
0.440513 0.270649 0
0.488807 0.263157 0
0.53785 0.254765 0
0.586069 0.245136 0
0.633478 0.234012 0
0.681117 0.220645 0
0.72903 0.205417 0
0.777798 0.186801 0
0.824628 0.164141 0
0.870207 0.137392 0
0.915053 0.101549 0
0.958526 0.0436713 0
0.999313 0 0
1 0 0
1 0 0
1 0 0
1 0 0
1 0 0
1 0 0
1 0 0
0 0.271748 0
0 0.281758 0
0 0.303044 0
0 0.311269 0
0 0.316106 0
0 0.319814 0
0 0.322454 0
0.0476539 0.323964 0
0.142275 0.325109 0
0.206516 0.324575 0
0.266133 0.322271 0
0.323064 0.318212 0
0.376211 0.313817 0
0.4271 0.308156 0
0.477867 0.302083 0
0.52784 0.294621 0
0.576989 0.286412 0
0.625635 0.277256 0
0.674311 0.2663 0
0.722469 0.253971 0
0.771908 0.239521 0
0.820554 0.222889 0
0.86566 0.20412 0
0.911238 0.182116 0
0.955795 0.155596 0
0.999313 0.121752 0
1 0.0725567 0
1 0 0
1 0 0
1 0 0
1 0 0
1 0 0
1 0 0
0 0.297093 0
0 0.308904 0
0 0.331884 0
0 0.340948 0
0 0.346731 0
0 0.350927 0
0 0.353994 0
0 0.356039 0
0.0953994 0.357259 0
0.17705 0.357946 0
0.238895 0.357229 0
0.300237 0.354528 0
0.357183 0.35021 0
0.411643 0.345663 0
0.464027 0.339879 0
0.51632 0.333669 0
0.567102 0.32668 0
0.616098 0.318441 0
0.666331 0.309346 0
0.715923 0.299214 0
0.765469 0.287037 0
0.814496 0.273564 0
0.861418 0.25919 0
0.907668 0.24271 0
0.952087 0.223774 0
0.995819 0.202075 0
1 0.176577 0
1 0.145113 0
1 0.1028 0
1 0.0272679 0
1 0 0
1 0 0
1 0 0
0 0.323033 0
0 0.335805 0
0 0.361471 0
0 0.371389 0
0 0.377203 0
0 0.381811 0
0 0.38529 0
0 0.388251 0
0 0.390402 0
0.133333 0.39205 0
0.208301 0.393408 0
0.271778 0.390661 0
0.334447 0.387152 0
0.392432 0.382574 0
0.448386 0.377951 0
0.503014 0.372488 0
0.554833 0.365911 0
0.606119 0.359152 0
0.657588 0.351278 0
0.707256 0.342107 0
0.758465 0.332006 0
0.808606 0.320806 0
0.855619 0.308721 0
0.901991 0.295186 0
0.947646 0.280446 0
0.992386 0.264073 0
1 0.245701 0
1 0.224369 0
1 0.200168 0
1 0.171191 0
1 0.134493 0
1 0.0814221 0
1 0 0
0 0.349172 0
0 0.363409 0
0 0.391745 0
0 0.40264 0
0 0.409003 0
0 0.414023 0
0 0.418799 0
0 0.422889 0
0 0.42649 0
0.0367742 0.428901 0
0.163317 0.430182 0
0.240589 0.429358 0
0.305043 0.424323 0
0.369451 0.420798 0
0.429419 0.416739 0
0.48632 0.411276 0
0.541085 0.405951 0
0.594003 0.399924 0
0.646204 0.392508 0
0.698054 0.384955 0
0.750362 0.376211 0
0.800443 0.366033 0
0.848814 0.356023 0
0.896376 0.344823 0
0.942824 0.332647 0
0.988174 0.319326 0
1 0.30425 0
1 0.288228 0
1 0.270436 0
1 0.250538 0
1 0.227832 0
1 0.200855 0
1 0.168917 0
0 0.375769 0
0 0.391699 0
0 0.422095 0
0 0.433463 0
0 0.441642 0
0 0.448859 0
0 0.454643 0
0 0.459113 0
0 0.462791 0
0 0.466102 0
0.0836194 0.467781 0
0.197009 0.468208 0
0.27512 0.463386 0
0.341299 0.45893 0
0.406134 0.454658 0
0.467475 0.450324 0
0.525017 0.445579 0
0.579431 0.439704 0
0.634134 0.43357 0
0.687526 0.426947 0
0.740688 0.418982 0
0.792325 0.410224 0
0.841611 0.401541 0
0.889982 0.391882 0
0.93669 0.381247 0
0.981994 0.369665 0
1 0.357534 0
1 0.344396 0
1 0.330098 0
1 0.314076 0
1 0.296803 0
1 0.277836 0
1 0.256596 0
0 0.402808 0
0 0.420264 0
0 0.452445 0
0 0.466636 0
0 0.476905 0
0 0.484596 0
0 0.490761 0
0 0.495674 0
0 0.499794 0
0 0.503563 0
0 0.505776 0
0.125734 0.506722 0
0.234775 0.502663 0
0.31104 0.4981 0
0.378393 0.493172 0
0.444892 0.489326 0
0.505852 0.485008 0
0.563073 0.479759 0
0.619944 0.474281 0
0.67512 0.468406 0
0.729183 0.460899 0
0.782666 0.453452 0
0.832959 0.445823 0
0.882094 0.437278 0
0.929 0.427588 0
0.975631 0.417853 0
1 0.407416 0
1 0.396231 0
1 0.383688 0
1 0.370657 0
1 0.35671 0
1 0.341588 0
1 0.325154 0
0 0.429862 0
0 0.448875 0
0 0.484733 0
0 0.501457 0
0 0.512383 0
0 0.520195 0
0 0.527214 0
0 0.532601 0
0 0.537148 0
0 0.540551 0
0 0.543984 0
0 0.545541 0
0.175143 0.542153 0
0.273548 0.537942 0
0.347799 0.532509 0
0.417884 0.528313 0
0.482872 0.523812 0
0.543984 0.519631 0
0.603525 0.514717 0
0.660029 0.508919 0
0.716472 0.502541 0
0.771359 0.495872 0
0.82269 0.489036 0
0.87187 0.480797 0
0.920577 0.472724 0
0.967971 0.464118 0
1 0.454932 0
1 0.445182 0
1 0.434195 0
1 0.422995 0
1 0.411139 0
1 0.39852 0
1 0.384939 0
0 0.456809 0
0 0.477394 0
0 0.518563 0
0 0.536324 0
0 0.547875 0
0 0.556649 0
0 0.563775 0
0 0.569512 0
0 0.574411 0
0 0.57818 0
0 0.582162 0
0 0.584222 0
0.047776 0.581567 0
0.222522 0.577234 0
0.313832 0.57232 0
0.387594 0.5673 0
0.457206 0.562783 0
0.52253 0.558984 0
0.585214 0.554498 0
0.64387 0.548913 0
0.702586 0.543328 0
0.759045 0.53727 0
0.811688 0.531106 0
0.862303 0.523796 0
0.911528 0.516243 0
0.959838 0.508553 0
1 0.500343 0
1 0.491646 0
1 0.481743 0
1 0.471977 0
1 0.461631 0
1 0.450675 0
1 0.439048 0
0 0.483955 0
0 0.506111 0
0 0.552453 0
0 0.57116 0
0 0.583459 0
0 0.592782 0
0 0.600397 0
0 0.6065 0
0 0.611795 0
0 0.616693 0
0 0.620508 0
0 0.622995 0
0 0.62121 0
0.138323 0.616861 0
0.267674 0.612131 0
0.354955 0.607294 0
0.425742 0.601526 0
0.496544 0.598108 0
0.563119 0.593957 0
0.625437 0.589395 0
0.685802 0.583642 0
0.744045 0.578088 0
0.798108 0.572488 0
0.849928 0.565728 0
0.900298 0.558907 0
0.949462 0.551919 0
0.997253 0.544533 0
1 0.536721 0
1 0.527703 0
1 0.51899 0
1 0.509819 0
1 0.500145 0
1 0.489921 0
0 0.511055 0
0 0.537209 0
0 0.586694 0
0 0.606149 0
0 0.619303 0
0 0.629236 0
0 0.637247 0
0 0.643839 0
0 0.649592 0
0 0.655253 0
0 0.659159 0
0 0.662364 0
0 0.661097 0
0 0.657191 0
0.200458 0.65211 0
0.313115 0.647471 0
0.394797 0.642405 0
0.465843 0.637171 0
0.537484 0.633326 0
0.603632 0.629343 0
0.666621 0.623758 0
0.727077 0.618662 0
0.782834 0.613565 0
0.836393 0.607523 0
0.887663 0.600946 0
0.937758 0.594553 0
0.98645 0.587869 0
1 0.580743 0
1 0.572412 0
1 0.564538 0
1 0.556252 0
1 0.547524 0
1 0.538399 0
0 0.537743 0
0 0.568353 0
0 0.621256 0
0 0.642527 0
0 0.65568 0
0 0.666224 0
0 0.67483 0
0 0.681941 0
0 0.688136 0
0 0.69424 0
0 0.698482 0
0 0.702831 0
0 0.701488 0
0 0.697841 0
0.0513771 0.692638 0
0.25626 0.688029 0
0.356237 0.683436 0
0.434104 0.677531 0
0.507973 0.672984 0
0.578759 0.669306 0
0.645243 0.663981 0
0.708309 0.659251 0
0.766049 0.654582 0
0.821591 0.649287 0
0.873838 0.642786 0
0.925124 0.636881 0
0.974716 0.630655 0
1 0.624109 0
1 0.617227 0
1 0.609094 0
1 0.601541 0
1 0.593591 0
1 0.585321 0
0 0.564385 0
0 0.59968 0
0 0.656016 0
0 0.679103 0
0 0.693049 0
0 0.704341 0
0 0.713695 0
0 0.721309 0
0 0.728176 0
0 0.734462 0
0 0.738979 0
0 0.743755 0
0 0.743069 0
0 0.739651 0
0 0.735012 0
0.161456 0.729793 0
0.3037 0.725368 0
0.396597 0.719539 0
0.47454 0.714183 0
0.548882 0.710216 0
0.62031 0.705623 0
0.686198 0.700679 0
0.746258 0.696315 0
0.803784 0.691371 0
0.858656 0.686183 0
0.910231 0.679667 0
0.960906 0.673869 0
1 0.667796 0
1 0.661433 0
1 0.654673 0
1 0.646815 0
1 0.639551 0
1 0.631968 0
0 0.593057 0
0 0.632563 0
0 0.691951 0
0 0.716731 0
0 0.731594 0
0 0.743694 0
0 0.753643 0
0 0.761654 0
0 0.769863 0
0 0.775494 0
0 0.781277 0
0 0.785412 0
0 0.786236 0
0 0.782208 0
0 0.778408 0
0 0.772549 0
0.225269 0.768017 0
0.34757 0.763439 0
0.437736 0.757061 0
0.513405 0.751736 0
0.590295 0.747707 0
0.660471 0.743175 0
0.722942 0.738415 0
0.782818 0.733791 0
0.839567 0.728939 0
0.893538 0.723583 0
0.944671 0.717311 0
0.994888 0.711696 0
1 0.705821 0
1 0.699657 0
1 0.692866 0
1 0.685542 0
1 0.678599 0
0 0.622812 0
0 0.665217 0
0 0.728542 0
0 0.754803 0
0 0.771801 0
0 0.783444 0
0 0.793851 0
0 0.803571 0
0 0.81088 0
0 0.816785 0
0 0.82327 0
0 0.827359 0
0 0.829313 0
0 0.824994 0
0 0.821347 0
0 0.815915 0
0.0319371 0.810864 0
0.27921 0.806241 0
0.392004 0.801022 0
0.478004 0.794659 0
0.554803 0.789136 0
0.63064 0.785214 0
0.696605 0.780423 0
0.759197 0.775891 0
0.818173 0.771344 0
0.87422 0.766567 0
0.927382 0.76112 0
0.978271 0.755184 0
1 0.749691 0
1 0.743999 0
1 0.738048 0
1 0.731487 0
1 0.724269 0
0 0.653208 0
0 0.698665 0
0 0.76672 0
0 0.793118 0
0 0.811261 0
0 0.824826 0
0 0.835798 0
0 0.844556 0
0 0.852171 0
0 0.859709 0
0 0.865202 0
0 0.869627 0
0 0.87219 0
0 0.868681 0
0 0.864408 0
0 0.859907 0
0 0.854337 0
0.164004 0.849073 0
0.331121 0.8439 0
0.434562 0.8383 0
0.519326 0.831922 0
0.595743 0.82681 0
0.667155 0.823224 0
0.732616 0.81796 0
0.794324 0.813703 0
0.852491 0.80914 0
0.907805 0.80441 0
0.96051 0.799176 0
1 0.793179 0
1 0.787732 0
1 0.782101 0
1 0.776287 0
1 0.77023 0
0 0.685481 0
0 0.732815 0
0 0.803998 0
0 0.83328 0
0 0.851118 0
0 0.865339 0
0 0.876738 0
0 0.885832 0
0 0.894209 0
0 0.901778 0
0 0.90753 0
0 0.913619 0
0 0.915312 0
0 0.912398 0
0 0.907988 0
0 0.90312 0
0 0.898543 0
0 0.892317 0
0.241199 0.886976 0
0.378851 0.881971 0
0.478065 0.875532 0
0.559457 0.869368 0
0.632563 0.865049 0
0.703243 0.861112 0
0.767498 0.855924 0
0.828199 0.851545 0
0.885527 0.847013 0
0.9402 0.842283 0
0.992554 0.837263 0
1 0.831617 0
1 0.825635 0
1 0.82005 0
1 0.814313 0
0 0.716747 0
0 0.767559 0
0 0.84152 0
0 0.872526 0
0 0.891875 0
0 0.906126 0
0 0.917983 0
0 0.928374 0
0 0.937362 0
