shaders/LUTs/misc/custom_2.cube
TITLE "Generated by Resolve"
LUT_3D_SIZE 5
# viewing transform: 4
# output colorspace: 1
# gamma correction: on
0 0.00205997 0.0203098
0.382559 0 0.000289921
0.914717 0 0
1 0 0
1 0 0
0 0.228931 0
0.185473 0.218692 0
0.782254 0.151751 0
1 0.126253 0
1 0.095079 0
0 0.53312 0
0.0435035 0.545434 0
0.588312 0.503746 0
1 0.468421 0
1 0.435264 0
0 0.852613 0
0 0.856657 0
0.398489 0.847608 0
0.958938 0.786816 0
1 0.739116 0
0 1 0.00415045
0 1 0.0010071
0.260349 1 0.00976577
0.824689 1 0
1 0.971115 0
0 0 0.239246
0.354803 0 0.221729
0.894911 0 0.162295
1 0 0.132982
1 0 0.107225
0 0.228077 0.182147
0.169207 0.221515 0.206027
0.766033 0.157473 0.170062
1 0.13257 0.170871
1 0.101534 0.163287
0 0.53814 0.123842
0.0369116 0.549798 0.168612
0.567788 0.512032 0.164584
1 0.474617 0.161089
1 0.440879 0.161044
0 0.858701 0.146593
0 0.860822 0.168231
0.377111 0.854078 0.182422
0.942824 0.789548 0.140612
1 0.740581 0.116274
0 1 0.212009
0 1 0.205737
0.242512 1 0.213458
0.801892 1 0.146639
1 0.971252 0.107424
0 0 0.528618
0.321813 0 0.514138
0.870085 0 0.453361
1 0 0.426062
1 0 0.402289
0 0.22211 0.471504
0.148913 0.218875 0.497688
0.743572 0.158099 0.463859
1 0.133242 0.463539
1 0.102495 0.455024
0 0.537728 0.413657
0.0250553 0.548272 0.456092
0.541634 0.514839 0.4551
1 0.475151 0.447959
1 0.440665 0.445731
0 0.859327 0.430045
0 0.859525 0.44828
0.35053 0.854704 0.462837
0.921172 0.786633 0.415839
1 0.736599 0.388663
0 1 0.484474
0 1 0.473701
0.220722 1 0.478614
0.773449 1 0.410834
1 0.966888 0.368688
0 0 0.785687
0.291768 0 0.776684
0.847837 0 0.717235
1 0 0.694469
1 0 0.674952
0 0.21825 0.740826
0.131594 0.217884 0.771466
0.72166 0.160403 0.742489
1 0.134829 0.742931
1 0.104372 0.73611
0 0.538109 0.695125
0.0141299 0.54696 0.737301
0.515862 0.517906 0.742016
1 0.475563 0.733471
1 0.439994 0.731289
0 0.859663 0.716823
0 0.857664 0.733944
0.323598 0.854124 0.750866
0.898253 0.782574 0.701442
1 0.731319 0.674067
0 1 0.772274
0 1 0.759731
0.198062 1 0.764401
0.742199 1 0.699016
1 0.96051 0.656611
0 0 0.968353
0.268452 0 0.963607
0.831891 0 0.905089
1 0 0.886076
1 0 0.869993
0 0.221027 0.932265
0.121874 0.223224 0.966598
0.70518 0.169284 0.942351
1 0.142443 0.942779
1 0.112474 0.937774
0 0.544732 0.897231
0.0102083 0.551766 0.939193
0.496437 0.527031 0.949859
1 0.48188 0.940154
1 0.444999 0.938369
0 0.865934 0.926055
0 0.861585 0.942718
0.303105 0.858839 0.962386
0.880552 0.784054 0.911757
1 0.731563 0.885222
0 1 0.986664
0 1 0.973556
0.181567 1 0.979049
0.71545 1 0.917952
1 0.95993 0.87686
