shaders/LUTs/misc/custom_1.cube
TITLE "Generated by Resolve"
LUT_3D_SIZE 9
0 0 0
0.394736 0 0
0.717494 0 0
0.987869 0 0
1 0 0
1 0 0
1 0 0
1 0 0
1 0 0
0 0.23859 0
0.228717 0.148043 0
0.594354 0 0
0.881895 0 0
1 0 0
1 0 0
1 0 0
1 0 0
1 0 0
0 0.425391 0
0 0.369055 0
0.467277 0.339162 0
0.782895 0.140551 0
1 0 0
1 0 0
1 0 0
1 0 0
1 0 0
0 0.59202 0
0 0.538521 0
0.238682 0.53579 0
0.660655 0.493889 0
0.948516 0.387579 0
1 0 0
1 0 0
1 0 0
1 0 0
0 0.742901 0
0 0.69337 0
0 0.685588 0
0.492241 0.675181 0
0.83125 0.631495 0
1 0.54847 0
1 0.394873 0
1 0 0
1 0 0
0 0.882704 0
0 0.836439 0
0 0.81706 0
0 0.822095 0
0.683909 0.80177 0
0.987213 0.758267 0
1 0.687205 0
1 0.57641 0
1 0.379782 0
0 1 0
0 0.970581 0
0 0.946349 0
0 0.950088 0
0.463081 0.944701 0
0.852064 0.919936 0
1 0.877272 0
1 0.813794 0
1 0.723217 0
0 1 0
0 1 0
0 1 0
0 1 0
0 1 0
0.674815 1 0
1 1 0
1 0.990295 0
1 0.932158 0
0 1 0
0 1 0
0 1 0
0 1 0
0 1 0
0.376577 1 0
0.850294 1 0
1 1 0
1 1 0
0 0 0.154253
0.340749 0 0.118791
0.673609 0 0
0.949081 0 0
1 0 0
1 0 0
1 0 0
1 0 0
1 0 0
0 0.256703 0.211429
0.171588 0.138811 0.0945449
0.539086 0 0
0.836484 0 0
1 0 0
1 0 0
1 0 0
1 0 0
1 0 0
0 0.431678 0.0725109
0 0.357107 0
0.417243 0.337896 0
0.736492 0.185321 0
1 0 0
1 0 0
1 0 0
1 0 0
1 0 0
0 0.595331 0
0 0.533089 0
0.158038 0.527108 0
0.616617 0.494148 0
0.907515 0.399878 0
1 0 0
1 0 0
1 0 0
1 0 0
0 0.7449 0
0 0.689921 0
0 0.673777 0
0.447211 0.669535 0
0.791394 0.631968 0
1 0.555611 0
1 0.413489 0
1 0 0
1 0 0
0 0.883955 0
0 0.833829 0
0 0.809155 0
0 0.81445 0
0.643977 0.797833 0
0.950256 0.758648 0
1 0.691997 0
1 0.586816 0
1 0.404379 0
0 1 0
0 0.968368 0
0 0.940383 0
0 0.940429 0
0.407355 0.938796 0
0.814893 0.916945 0
1 0.87747 0
1 0.817151 0
1 0.73022 0
0 1 0
0 1 0
0 1 0
0 1 0
0 1 0
0.631922 1 0
0.970748 1 0
1 0.99028 0
1 0.934585 0
0 1 0
0 1 0
0 1 0
0 1 0
0 1 0
0.286931 1 0
0.81207 1 0
1 1 0
1 1 0
0 0 0.356222
0.291081 0 0.34197
0.629953 0 0.241123
0.9093 0 0
1 0 0
1 0 0
1 0 0
1 0 0
1 0 0
0 0.271763 0.385061
0 0.103182 0.316228
0.484108 0 0.265965
0.789166 0 0
1 0 0
1 0 0
1 0 0
1 0 0
1 0 0
0 0.437186 0.352392
0 0.346075 0.283574
0.372244 0.327581 0.298466
0.686412 0.205219 0.241032
0.966049 0 0
1 0 0
1 0 0
1 0 0
1 0 0
0 0.598428 0.265309
0 0.527794 0.138155
0 0.51545 0.259586
0.570794 0.488945 0.297261
0.863478 0.407401 0.135271
1 0.13962 0
1 0 0
1 0 0
1 0 0
0 0.747112 0
0 0.686778 0
0 0.662089 0
0.399329 0.661006 0.212085
0.749706 0.629496 0.200565
1 0.560449 0
1 0.428367 0
1 0 0
1 0 0
0 0.885756 0
0 0.831846 0
0 0.801846 0
0 0.805432 0
0.604212 0.79176 0
0.912184 0.757458 0
1 0.695735 0
1 0.596262 0
1 0.426535 0
0 1 0
0 0.967102 0
0 0.935317 0
0 0.929793 0
0.344579 0.932052 0
0.778103 0.912795 0
1 0.877028 0
1 0.820371 0
1 0.737392 0
0 1 0
0 1 0
0 1 0
0 1 0
0 1 0
0.588968 1 0
0.936141 1 0
1 0.990326 0
1 0.937453 0
0 1 0
0 1 0
0 1 0
0 1 0
0 1 0
0.143725 1 0
0.774899 1 0
1 1 0
1 1 0
0 0 0.534356
0.219425 0 0.52076
0.584894 0 0.482948
0.868376 0 0.370352
1 0 0
1 0 0
1 0 0
1 0 0
1 0 0
0 0.278309 0.553033
0 0 0.495644
0.427283 0 0.469062
0.740734 0 0.390997
1 0 0.123384
1 0 0
1 0 0
1 0 0
1 0 0
0 0.438682 0.535714
0 0.330617 0.483299
0.291493 0.311513 0.482353
0.637903 0.196704 0.458366
0.922072 0 0.376806
1 0 0
1 0 0
1 0 0
1 0 0
0 0.598856 0.494926
0 0.520012 0.440192
0 0.498436 0.458488
0.529427 0.478172 0.461372
0.815885 0.407691 0.441398
1 0.167971 0.33228
1 0 0
1 0 0
1 0 0
0 0.747204 0.422553
0 0.681636 0.353277
0 0.649058 0.367636
0.331472 0.650034 0.447333
0.705852 0.621912 0.468452
0.980285 0.560739 0.401358
1 0.435386 0.244099
1 0 0
1 0 0
0 0.885771 0.287938
0 0.828092 0.119814
0 0.792981 0.142718
0 0.793378 0.34197
0.56144 0.782208 0.421149
0.871397 0.752483 0.416541
1 0.695842 0.327932
1 0.600809 0
1 0.439658 0
0 1 0
0 0.964248 0
0 0.928756 0
0 0.918013 0
0.252735 0.922835 0.295705
0.739925 0.905303 0.364004
1 0.873472 0.333684
1 0.820478 0.178592
1 0.740841 0
0 1 0
0 1 0
0 1 0
0 1 0
0 1 0
0.539834 1 0.183078
0.899947 1 0.255314
1 0.987716 0.167437
1 0.937667 0
0 1 0
0 1 0
0 1 0
0 1 0
0 1 0
0 1 0
0.734615 1 0
1 1 0
1 1 0
0 0 0.69659
0.0551308 0 0.681987
0.534905 0 0.661173
0.826154 0 0.602472
1 0 0.499489
1 0 0.288457
1 0 0
1 0 0
1 0 0
0 0.275608 0.709621
0 0 0.659815
0.350286 0 0.64004
0.690639 0 0.596262
0.965972 0 0.514138
1 0 0.349889
1 0 0
1 0 0
1 0 0
0 0.436271 0.698451
0 0.308507 0.652979
0.168154 0.277562 0.647196
0.590829 0.148989 0.627726
0.877562 0 0.588022
1 0 0.496849
1 0 0.293462
1 0 0
1 0 0
0 0.596796 0.671931
0 0.509392 0.627619
0 0.473213 0.623484
0.464271 0.464164 0.628443
0.771145 0.397528 0.612833
1 0.165423 0.569665
1 0 0.468894
1 0 0.230594
1 0 0
0 0.745449 0.628229
0 0.674586 0.581659
0 0.634409 0.575769
0.213764 0.636744 0.614527
0.66688 0.611399 0.607446
0.934737 0.557122 0.599145
1 0.435798 0.53933
1 0 0.420676
1 0 0
0 0.88426 0.563134
0 0.822828 0.509361
0 0.782727 0.500099
0 0.777996 0.554162
0.506004 0.771603 0.600778
0.829206 0.743923 0.617563
1 0.693156 0.571054
1 0.601312 0.493767
1 0.44593 0.344793
0 1 0.465446
0 0.960098 0.392691
0 0.920974 0.375311
0 0.905364 0.436408
0 0.911742 0.537774
0.700191 0.895262 0.581201
0.985 0.867185 0.578683
1 0.818158 0.524453
1 0.741268 0.427848
0 1 0.290379
0 1 0
0 1 0
0 1 0.189639
0 1 0.407294
0.480629 1 0.506279
0.863233 1 0.542092
1 0.982788 0.523629
1 0.935699 0.457725
0 1 0
0 1 0
0 1 0
0 1 0
0 1 0
0 1 0.361791
0.690532 1 0.456062
1 1 0.480735
1 1 0.448737
0 0 0.848112
0 0 0.831312
0.4757 0 0.819867
0.781643 0 0.780636
1 0 0.71809
1 0 0.623148
1 0 0.469139
1 0 0
1 0 0
0 0.263798 0.857343
0 0 0.812802
0.231327 0 0.796536
0.63566 0 0.76556
0.920928 0 0.715175
1 0 0.634073
1 0 0.501869
1 0 0.192355
1 0 0
0 0.429938 0.849577
0 0.277485 0.80856
0 0.215763 0.798703
0.533181 0 0.785092
0.831968 0 0.755917
1 0 0.701747
1 0 0.607385
1 0 0.439704
1 0 0
0 0.592264 0.829953
0 0.495491 0.790585
0 0.444129 0.778271
0.385901 0.441291 0.784131
0.728527 0.373907 0.767865
0.998596 0.124483 0.742779
1 0 0.686687
1 0 0.589624
1 0 0.417792
0 0.741894 0.798459
0 0.665507 0.759121
0 0.617578 0.746212
0 0.61825 0.767391
0.60972 0.598154 0.76376
0.89276 0.546426 0.752331
1 0.42916 0.724956
1 0 0.661891
1 0 0.556435
0 0.881331 0.753796
0 0.816052 0.712581
0 0.770947 0.698482
0 0.758892 0.721508
0.428122 0.759762 0.753491
0.79205 0.733715 0.743069
1 0.687846 0.740414
1 0.59794 0.699916
1 0.446036 0.627298
0 1 0.693248
0 0.954696 0.647608
0 0.91194 0.630869
0 0.891722 0.652491
0 0.898634 0.711589
0.650248 0.884932 0.739696
0.944121 0.858198 0.754589
1 0.813886 0.718074
1 0.738964 0.665202
0 1 0.611093
0 1 0.55642
0 1 0.534371
0 1 0.556558
0 1 0.629572
0.402274 1 0.693294
0.825681 1 0.723781
1 0.975723 0.722576
1 0.931914 0.681788
0 1 0.492973
0 1 0.4159
0 1 0.379538
0 1 0.407721
0 1 0.496757
0 1 0.610285
0.639994 1 0.667155
0.977966 1 0.692775
1 1 0.678782
0 0 0.991699
0 0 0.973861
0.401862 0 0.967285
0.733425 0 0.938552
1 0 0.893492
1 0 0.830198
1 0 0.741802
1 0 0.61413
1 0 0.395483
0 0.241718 0.998093
0 0 0.957443
0 0 0.942931
0.57203 0 0.919646
0.87332 0 0.882887
1 0 0.828672
1 0 0.750179
1 0 0.635981
1 0 0.45008
0 0.419608 0.992645
0 0.232715 0.954803
0 0 0.940734
0.459953 0 0.932555
0.782513 0 0.908232
1 0 0.869139
1 0 0.806424
1 0 0.711513
1 0 0.570306
0 0.585199 0.976989
0 0.477897 0.940841
0 0.409461 0.92491
0.277256 0.408698 0.929686
0.678157 0.339986 0.916625
0.956329 0 0.895613
1 0 0.858198
1 0 0.795789
1 0 0.701396
0 0.736522 0.9523
0 0.654246 0.916823
0 0.598108 0.900664
0 0.593194 0.911513
0.544564 0.579171 0.912306
0.852979 0.526848 0.898268
1 0.413687 0.880919
1 0 0.841245
1 0 0.775464
0 0.876967 0.918044
0 0.807721 0.882216
0 0.757458 0.865721
0 0.738506 0.874601
0.323232 0.744198 0.898543
0.740047 0.720867 0.891585
1 0.676936 0.882643
1 0.590112 0.863981
1 0.439933 0.818601
0 1 0.873198
0 0.948058 0.835843
0 0.90164 0.818311
0 0.876875 0.826093
0 0.88275 0.864424
0.584268 0.87393 0.88304
0.908507 0.848219 0.871244
1 0.80766 0.871778
1 0.733883 0.842008
0 1 0.8159
0 1 0.775494
0 1 0.755901
0 1 0.762768
0 1 0.802182
0.283833 1 0.850309
0.779065 0.992264 0.869566
1 0.966583 0.88336
1 0.926711 0.852964
0 1 0.742672
0 1 0.696864
0 1 0.67364
0 1 0.679591
0 1 0.71928
0 1 0.790173
0.578164 1 0.832273
0.942092 1 0.856092
1 1 0.855863
0 0 1
0 0 1
0.300511 0 1
0.680034 0 1
0.95758 0 1
1 0 1
1 0 0.939223
1 0 0.856214
1 0 0.74464
0 0.205234 1
0 0 1
0 0 1
0.495094 0 1
0.821729 0 1
1 0 0.994217
1 0 0.938231
1 0 0.862745
1 0 0.76054
0 0.40499 1
0 0.157946 1
0 0 1
0.361822 0 1
0.726528 0 1
0.998993 0 1
1 0 0.972686
1 0 0.90634
1 0 0.81738
0 0.575525 1
0 0.456062 1
0 0.366644 1
0 0.36286 1
0.6177 0.291966 1
0.911269 0 1
1 0 1
1 0 0.965042
1 0 0.899092
0 0.72932 1
0 0.64065 1
0 0.57554 1
0 0.559853 1
0.466377 0.554437 1
0.806851 0.501747 1
1 0.387732 1
1 0 0.996506
1 0 0.950072
0 0.871199 1
0 0.797742 1
0 0.742077 1
0 0.716258 1
0.115267 0.724147 1
0.682063 0.703929 1
0.96849 0.659281 1
1 0.576562 1
1 0.426841 0.9794
0 1 1
0 0.940154 0.999146
0 0.889952 0.980987
0 0.860609 0.981445
0 0.863386 1
0.505486 0.859922 1
0.860212 0.835645 1
1 0.796674 1
1 0.725475 0.99321
0 1 0.987625
0 1 0.953216
0 1 0.934157
0 0.995682 0.933959
0 0.987152 0.95697
0 0.995315 0.994324
0.719509 0.981796 1
1 0.956771 0.993713
1 0.919921 0.996185
0 1 0.932815
0 1 0.896162
0 1 0.875471
0 1 0.874434
0 1 0.896574
0 1 0.945891
0.499763 1 0.978882
0.89778 1 0.99295
1 1 1
0 0 1
0 0 1
0 0 1
0.619135 0 1
0.910796 0 1
1 0 1
1 0 1
1 0 1
1 0 0.967041
0 0.13695 1
0 0 1
0 0 1
0.395254 0 1
0.76466 0 1
1 0 1
1 0 1
1 0 1
1 0 0.972152
0 0.38558 1
0 0 1
0 0 1
0.191348 0 1
0.661631 0 1
0.949142 0 1
1 0 1
1 0 1
1 0 1
0 0.563149 1
0 0.429206 1
0 0.310948 1
0 0.294682 1
0.54493 0.215167 1
0.861402 0 1
1 0 1
1 0 1
1 0 1
0 0.720226 1
0 0.624521 1
0 0.54934 1
0 0.520668 1
0.364569 0.522896 1
0.753048 0.470619 1
1 0.349981 1
1 0 1
1 0 1
0 0.863996 1
0 0.786068 1
0 0.72462 1
0 0.691661 1
0 0.699229 1
0.615915 0.682963 1
0.925292 0.637903 1
1 0.556588 1
1 0.405295 1
0 0.998306 1
0 0.930953 1
0 0.876814 1
0 0.842756 1
0 0.839704 1
0.407858 0.842451 1
0.806958 0.819989 1
1 0.780194 1
1 0.712673 1
0 1 1
0 1 1
0 1 1
0 0.981689 1
0 0.968933 1
0 0.978622 1
0.651743 0.968795 1
0.972854 0.944396 1
1 0.908873 1
0 1 1
0 1 1
0 1 1
0 1 1
0 1 1
0 1 1
0.396048 1 1
0.842451 1 1
1 1 1
