shaders/LUTs/misc/custom_2.cube
TITLE "Generated by Resolve"
LUT_3D_SIZE 33
# viewing transform: 4
# output colorspace: 1
# gamma correction: on
0 0.00205997 0.0203098
0.0134737 0.00228885 0.0238804
0.0481727 0.000976577 0.0256504
0.0870832 0 0.026215
0.130648 0 0.0253605
0.181231 0 0.0225223
0.240787 0 0.0171817
0.309194 0 0.00941482
0.382559 0 0.000289921
0.457084 0 0
0.534051 0 0
0.610483 0 0
0.682322 0 0
0.74728 0 0
0.805737 0 0
0.86041 0 0
0.914717 0 0
0.970657 0 0
1 0 0
1 0 0
1 0 0
1 0 0
1 0 0
1 0 0
1 0 0
1 0 0
1 0 0
1 0 0
1 0 0
1 0 0
1 0 0
1 0 0
1 0 0
0 0.0288548 0.0140383
0.00062562 0.029221 0.0171359
0.0327153 0.0284886 0.0191501
0.0699168 0.0263523 0.019791
0.111452 0.0230106 0.0192569
0.159182 0.0179904 0.0170901
0.215488 0.0106661 0.012665
0.281224 0.000823987 0.00578317
0.353643 0 0
0.428107 0 0
0.504799 0 0
0.582361 0 0
0.656657 0 0
0.724453 0 0
0.785382 0 0
0.841382 0 0
0.895842 0 0
0.951919 0 0
1 0 0
1 0 0
1 0 0
1 0 0
1 0 0
1 0 0
1 0 0
1 0 0
1 0 0
1 0 0
1 0 0
1 0 0
1 0 0
1 0 0
1 0 0
0 0.0554055 0.00939956
0 0.0546426 0.0112612
0.0195163 0.0549783 0.0142214
0.0551766 0.0532387 0.0151217
0.0949722 0.0504158 0.0149233
0.140139 0.0461738 0.0133059
0.19321 0.039826 0.00961318
0.255634 0.0310216 0.00347906
0.326131 0.0201114 0
0.400229 0.00831617 0
0.475746 0 0
0.553338 0 0
0.629297 0 0
0.699702 0 0
0.763287 0 0
0.821012 0 0
0.876143 0 0
0.932418 0 0
0.98941 0 0
1 0 0
1 0 0
1 0 0
1 0 0
1 0 0
1 0 0
1 0 0
1 0 0
1 0 0
1 0 0
1 0 0
1 0 0
1 0 0
1 0 0
0 0.0819715 0.00480659
0 0.0805676 0.00607309
0.00732433 0.0811933 0.00933852
0.0413825 0.0799573 0.0107576
0.0798047 0.0776074 0.0110323
0.122957 0.0740368 0.0100862
0.173159 0.0686503 0.00730907
0.232395 0.0609293 0.00218204
0.300694 0.0508583 0
0.374304 0.0394903 0
0.449226 0.0279088 0
0.526711 0.0157778 0
0.603937 0.00389105 0
0.676875 0 0
0.743099 0 0
0.802869 0 0
0.858808 0 0
0.914336 0 0
0.971633 0 0
1 0 0
1 0 0
1 0 0
1 0 0
1 0 0
1 0 0
1 0 0
1 0 0
1 0 0
1 0 0
1 0 0
1 0 0
1 0 0
1 0 0
0 0.10901 0
0 0.107179 0.000595102
0 0.107485 0.00369268
0.0278477 0.106981 0.00596628
0.0651102 0.105135 0.00686656
0.106706 0.102205 0.00665293
0.154437 0.097734 0.00489815
0.210727 0.0910964 0.0009308
0.276478 0.0820478 0
0.349142 0.0712902 0
0.424018 0.0601205 0
0.501152 0.0485389 0
0.57937 0.0368811 0
0.654749 0.0262303 0
0.723842 0.0174868 0
0.786175 0.0108034 0
0.843534 0.00567636 0
0.89926 0.00123598 0
0.956649 0 0
1 0 0
1 0 0
1 0 0
1 0 0
1 0 0
1 0 0
1 0 0
1 0 0
1 0 0
1 0 0
1 0 0
1 0 0
1 0 0
1 0 0
0 0.13695 0
0 0.134798 0
0 0.134096 0
0.0141451 0.134752 0.000244144
0.0503395 0.13344 0.00189212
0.0907454 0.131136 0.00250248
0.136477 0.127535 0.00178531
0.190082 0.121996 0
0.253086 0.114092 0
0.324392 0.104173 0
0.399603 0.0934157 0
0.476188 0.0825055 0
0.555032 0.0712139 0
0.632471 0.0605478 0
0.704524 0.0515602 0
0.769772 0.0446479 0
0.829053 0.0395819 0
0.885542 0.035523 0
0.942687 0.0315099 0
1 0.0274052 0
1 0.0234379 0
1 0.019501 0
1 0.0155947 0
1 0.0117189 0
1 0.00784314 0
1 0.00395209 0
1 7.62951e-05 0
1 0 0
1 0 0
1 0 0
1 0 0
1 0 0
1 0 0
0 0.16611 0
0 0.163775 0
0 0.162615 0
0 0.163638 0
0.0349737 0.162982 0
0.074464 0.161303 0
0.1187 0.158526 0
0.16994 0.15407 0
0.230243 0.147417 0
0.299763 0.138491 0
0.374868 0.128298 0
0.451377 0.117952 0
0.530495 0.107149 0
0.609552 0.0965896 0
0.684504 0.0873732 0
0.752773 0.0802014 0
0.814527 0.0750591 0
0.872267 0.0712291 0
0.929442 0.0677958 0
0.988357 0.0641337 0
1 0.0605936 0
1 0.0570687 0
1 0.0535439 0
1 0.0499886 0
1 0.0464179 0
1 0.0428168 0
1 0.0391546 0
1 0.0354467 0
1 0.0316777 0
1 0.0278325 0
1 0.0238804 0
1 0.0198367 0
1 0.015671 0
0 0.196719 0
0 0.194308 0
0 0.192905 0
0 0.193668 0
0.0189517 0.194018 0
0.0576791 0.193011 0
0.100801 0.191073 0
0.149996 0.187701 0
0.207736 0.182269 0
0.274998 0.174487 0
0.349416 0.165011 0
0.426261 0.155123 0
0.505257 0.144884 0
0.585519 0.134569 0
0.663127 0.125216 0
0.734539 0.117769 0
0.799161 0.112413 0
0.858625 0.108659 0
0.916274 0.105608 0
0.975433 0.102327 0
1 0.0991226 0
1 0.0958724 0
1 0.0925917 0
1 0.0892653 0
1 0.0858778 0
1 0.0824292 0
1 0.0788891 0
1 0.0752575 0
1 0.0715343 0
1 0.067689 0
1 0.0637217 0
1 0.059617 0
1 0.055375 0
0 0.228931 0
0 0.226535 0
0 0.225086 0
0 0.225101 0
0.00248722 0.226749 0
0.0404364 0.22649 0
0.0826429 0.225315 0
0.130159 0.222934 0
0.185473 0.218692 0
0.250202 0.212146 0
0.323369 0.203555 0
0.400687 0.19411 0
0.479332 0.184543 0
0.560342 0.174578 0
0.640101 0.165194 0
0.714611 0.157458 0
0.782254 0.151751 0
0.843778 0.147875 0
0.902281 0.144976 0
0.961166 0.142092 0
1 0.13901 0
1 0.135943 0
1 0.132815 0
1 0.12958 0
1 0.126253 0
1 0.122835 0
1 0.119295 0
1 0.115633 0
1 0.111818 0
1 0.107881 0
1 0.103777 0
1 0.0994888 0
1 0.095079 0
0 0.262776 0
0 0.260533 0
0 0.259144 0
0 0.258976 0
0 0.261097 0
0.0228122 0.261692 0
0.0642252 0.26128 0
0.110384 0.259815 0
0.163439 0.256748 0
0.225528 0.251484 0
0.29691 0.243946 0
0.374105 0.235096 0
0.452781 0.226078 0
0.534035 0.216556 0
0.615366 0.207202 0
0.692714 0.199084 0
0.763333 0.192935 0
0.827268 0.188724 0
0.886946 0.185763 0
0.945739 0.183139 0
1 0.180148 0
1 0.177157 0
1 0.174075 0
1 0.170855 0
1 0.167498 0
1 0.164004 0
1 0.160372 0
1 0.156558 0
1 0.15259 0
1 0.148425 0
1 0.144167 0
1 0.139864 0
1 0.135531 0
0 0.2981 0
0 0.296056 0
0 0.294835 0
0 0.294652 0
0 0.296544 0
0.00552377 0.29839 0
0.046128 0.298772 0
0.0911116 0.298222 0
0.142107 0.296284 0
0.201572 0.292302 0
0.270573 0.285954 0
0.346899 0.277821 0
0.425803 0.269169 0
0.506691 0.260136 0
0.588952 0.250874 0
0.66865 0.24242 0
0.742138 0.235752 0
0.808698 0.231022 0
0.869871 0.227817 0
0.928939 0.225238 0
0.989319 0.222309 0
1 0.219333 0
1 0.21619 0
1 0.212894 0
1 0.20943 0
1 0.205783 0
1 0.201938 0
1 0.197925 0
1 0.193851 0
1 0.189731 0
1 0.18555 0
1 0.181308 0
1 0.177005 0
0 0.334646 0
0 0.332891 0
0 0.331884 0
0 0.331807 0
0 0.333196 0
0 0.336324 0
0.0290074 0.337575 0
0.0729229 0.337865 0
0.122072 0.336965 0
0.178897 0.334173 0
0.245045 0.32903 0
0.319738 0.321721 0
0.398718 0.313375 0
0.478935 0.304814 0
0.561471 0.29572 0
0.642832 0.287007 0
0.719005 0.279759 0
0.788205 0.274418 0
0.851102 0.270802 0
0.910689 0.26807 0
0.970397 0.265309 0
1 0.26215 0
1 0.258915 0
1 0.255467 0
1 0.251789 0
1 0.248005 0
1 0.244144 0
1 0.240208 0
1 0.23621 0
1 0.232136 0
1 0.22797 0
1 0.223728 0
1 0.219394 0
0 0.372198 0
0 0.370779 0
0 0.370047 0
0 0.370184 0
0 0.371511 0
0 0.375143 0
0.0133822 0.37731 0
0.0562142 0.378363 0
0.103685 0.378332 0
0.15787 0.376623 0
0.220951 0.372641 0
0.293309 0.366232 0
0.371588 0.358312 0
0.451347 0.350057 0
0.533562 0.341192 0
0.615915 0.332311 0
0.694392 0.324468 0
0.766094 0.318456 0
0.830961 0.31426 0
0.891325 0.311223 0
0.950545 0.308431 0
1 0.305135 0
1 0.301762 0
1 0.298253 0
1 0.294682 0
1 0.29102 0
1 0.287251 0
1 0.283406 0
1 0.279438 0
1 0.275395 0
1 0.271229 0
1 0.266957 0
1 0.262562 0
0 0.410834 0
0 0.409705 0
0 0.409247 0
0 0.409567 0
0 0.410864 0
0 0.413993 0
0 0.417487 0
0.0413367 0.419242 0
0.0872053 0.419959 0
0.138888 0.419196 0
0.198856 0.416266 0
0.268238 0.410834 0
0.345037 0.403449 0
0.424536 0.395346 0
0.505806 0.38677 0
0.58851 0.377783 0
0.668742 0.369406 0
0.742779 0.362661 0
0.809781 0.357733 0
0.871153 0.354223 0
0.930251 0.351308 0
0.990662 0.348119 0
1 0.344915 0
1 0.341573 0
1 0.33814 0
1 0.334569 0
1 0.330892 0
1 0.327092 0
1 0.323171 0
1 0.319112 0
1 0.314931 0
1 0.310597 0
1 0.306127 0
0 0.450767 0
0 0.449897 0
0 0.449622 0
0 0.450019 0
0 0.45127 0
0 0.453819 0
0 0.458152 0
0.0275425 0.460472 0
0.0720836 0.461723 0
0.121645 0.461677 0
0.178622 0.459648 0
0.244785 0.455161 0
0.319493 0.448341 0
0.398581 0.440314 0
0.478752 0.431952 0
0.561196 0.422904 0
0.642527 0.414084 0
0.718715 0.406546 0
0.788006 0.400946 0
0.85095 0.397116 0
0.910521 0.394247 0
0.970123 0.39144 0
1 0.388266 0
1 0.385092 0
1 0.38175 0
1 0.378271 0
1 0.374655 0
1 0.370886 0
1 0.366979 0
1 0.36289 0
1 0.358663 0
1 0.354269 0
1 0.349691 0
0 0.491661 0
0 0.490974 0
0 0.490806 0
0 0.491249 0
0 0.492424 0
0 0.494621 0
0 0.499031 0
0.0142977 0.501976 0
0.057496 0.50367 0
0.105135 0.504173 0
0.159258 0.502907 0
0.222065 0.499245 0
0.294087 0.49305 0
0.372122 0.485145 0
0.451606 0.476768 0
0.53344 0.46772 0
0.615625 0.458656 0
0.694163 0.450645 0
0.766049 0.44448 0
0.831113 0.440208 0
0.891569 0.437217 0
0.95082 0.434577 0
1 0.43151 0
1 0.428412 0
1 0.425162 0
1 0.421744 0
1 0.418158 0
1 0.414405 0
1 0.410468 0
1 0.406348 0
1 0.402045 0
1 0.397559 0
1 0.392874 0
0 0.53312 0
0 0.532555 0
0 0.532448 0
0 0.532876 0
0 0.533928 0
0 0.535836 0
0 0.539345 0
0.00177005 0.543374 0
0.0435035 0.545434 0
0.0893568 0.546334 0
0.140764 0.545678 0
0.200244 0.542748 0
0.269001 0.53724 0
0.345357 0.529702 0
0.424674 0.521447 0
0.505684 0.512795 0
0.588312 0.503746 0
0.668742 0.495338 0
0.743145 0.488594 0
0.810559 0.483742 0
0.872312 0.48043 0
0.931624 0.477775 0
0.992096 0.4748 0
1 0.471702 0
1 0.468421 0
1 0.464958 0
1 0.461311 0
1 0.457465 0
1 0.453422 0
1 0.449195 0
1 0.444755 0
1 0.440116 0
1 0.435264 0
0 0.574807 0
0 0.574289 0
0 0.574182 0
0 0.574533 0
0 0.575433 0
0 0.577035 0
0 0.579782 0
0 0.584268 0
0.0302434 0.586664 0
0.0743572 0.587854 0
0.123339 0.587686 0
0.179675 0.585595 0
0.245197 0.581109 0
0.319463 0.574304 0
0.398428 0.566278 0
0.478523 0.557977 0
0.561044 0.54905 0
0.642725 0.540368 0
0.719509 0.532998 0
0.789334 0.527504 0
0.852674 0.523735 0
0.912398 0.520912 0
0.971923 0.518105 0
1 0.514855 0
1 0.511528 0
1 0.507973 0
1 0.504219 0
1 0.500237 0
1 0.496056 0
1 0.49163 0
1 0.486992 0
1 0.482109 0
1 0.476997 0
0 0.616342 0
0 0.615824 0
0 0.615641 0
0 0.615854 0
0 0.616541 0
0 0.617807 0
0 0.619974 0
0 0.624216 0
0.0179599 0.627131 0
0.0605936 0.628794 0
0.107683 0.629313 0
0.161212 0.628168 0
0.223423 0.624689 0
0.294972 0.618723 0
0.372824 0.611078 0
0.452354 0.602991 0
0.534218 0.594263 0
0.616556 0.585382 0
0.695369 0.577432 0
0.767529 0.571252 0
0.832776 0.566873 0
0.893217 0.563745 0
0.952224 0.560922 0
1 0.557626 0
1 0.554192 0
1 0.55053 0
1 0.546624 0
1 0.542489 0
1 0.538094 0
1 0.533455 0
1 0.528572 0
1 0.52343 0
1 0.518013 0
0 0.657374 0
0 0.656764 0
0 0.656443 0
0 0.656474 0
0 0.656886 0
0 0.657832 0
0 0.659663 0
0 0.663035 0
0.00761425 0.667231 0
0.0487831 0.669444 0
0.0941482 0.670558 0
0.145037 0.670207 0
0.203983 0.667689 0
0.272312 0.662654 0
0.348363 0.655497 0
0.427558 0.647486 0
0.508232 0.639048 0
0.590646 0.630076 0
0.670985 0.621622 0
0.745357 0.61471 0
0.812696 0.609628 0
0.874174 0.606027 0
0.932998 0.603052 0
0.992828 0.59971 0
1 0.596139 0
1 0.59234 0
1 0.588251 0
1 0.583902 0
1 0.579293 0
1 0.574395 0
1 0.569223 0
1 0.563775 0
1 0.558053 0
0 0.697612 0
0 0.696849 0
0 0.696315 0
0 0.696178 0
0 0.696529 0
0 0.697459 0
0 0.699153 0
0 0.702007 0
0 0.706767 0
0.0391241 0.709545 0
0.082826 0.711177 0
0.131365 0.711482 0
0.187076 0.70985 0
0.251881 0.705745 0
0.32546 0.699214 0
0.403906 0.691325 0
0.483452 0.683085 0
0.565393 0.674128 0
0.646616 0.665263 0
0.723064 0.657618 0
0.792508 0.651743 0
0.855329 0.647547 0
0.914321 0.644266 0
0.972885 0.640955 0
1 0.63711 0
1 0.633112 0
1 0.628824 0
1 0.624231 0
1 0.619333 0
1 0.61416 0
1 0.608698 0
1 0.602975 0
1 0.596979 0
0 0.736919 0
0 0.73608 0
0 0.735592 0
0 0.735515 0
0 0.735882 0
0 0.736782 0
0 0.738338 0
0 0.740826 0
0 0.745449 0
0.0316167 0.748882 0
0.0737163 0.750957 0
0.120134 0.751812 0
0.172793 0.750957 0
0.234028 0.747707 0
0.304555 0.741909 0
0.381537 0.734279 0
0.460273 0.726085 0
0.541207 0.717205 0
0.622721 0.708049 0
0.700847 0.699702 0
0.77232 0.693004 0
0.836805 0.68806 0
0.896269 0.684321 0
0.95407 0.680858 0
1 0.676829 0
1 0.672587 0
1 0.66804 0
1 0.663188 0
1 0.658045 0
1 0.652613 0
1 0.646906 0
1 0.640909 0
1 0.634638 0
0 0.775769 0
0 0.775021 0
0 0.774594 0
0 0.774533 0
0 0.774868 0
0 0.775677 0
0 0.777066 0
0 0.779248 0
0 0.782834 0
0.026154 0.787381 0
0.0665599 0.789822 0
0.111055 0.791104 0
0.160922 0.79086 0
0.218692 0.788418 0
0.28571 0.783383 0
0.360586 0.77612 0
0.438743 0.767849 0
0.518227 0.759091 0
0.599512 0.749722 0
0.678828 0.740734 0
0.752255 0.733181 0
0.818586 0.727367 0
0.878859 0.722988 0
0.936263 0.719219 0
0.994507 0.715007 0
1 0.710536 0
1 0.70576 0
1 0.700679 0
1 0.695293 0
1 0.689632 0
1 0.68368 0
1 0.677455 0
1 0.670954 0
0 0.814328 0
0 0.813611 0
0 0.813184 0
0 0.813092 0
0 0.813352 0
0 0.814038 0
0 0.815229 0
0 0.81709 0
0 0.82002 0
0.0226749 0.824842 0
0.0611429 0.82768 0
0.103853 0.829282 0
0.151232 0.829526 0
0.205615 0.827771 0
0.268925 0.823484 0
0.341085 0.816678 0
0.418219 0.808392 0
0.496422 0.799649 0
0.576974 0.790127 0
0.656901 0.780591 0
0.732143 0.772122 0
0.800351 0.765362 0
0.86183 0.76022 0
0.919264 0.755993 0
0.976074 0.751751 0
1 0.746929 0
1 0.741924 0
1 0.736614 0
1 0.731014 0
1 0.725109 0
1 0.718944 0
1 0.712489 0
1 0.705776 0
0 0.852613 0
0 0.85185 0
0 0.851362 0
0 0.851164 0
0 0.851286 0
0 0.851789 0
0 0.85275 0
0 0.854276 0
0 0.856657 0
0.0214542 0.861067 0
0.0572824 0.864424 0
0.0982223 0.86627 0
0.143389 0.86685 0
0.194583 0.86566 0
0.254185 0.862074 0
0.323049 0.855817 0
0.398489 0.847608 0
0.475761 0.838727 0
0.555077 0.829099 0
0.635081 0.819104 0
0.711833 0.809781 0
0.781949 0.802075 0
0.845014 0.796078 0
0.902892 0.791287 0
0.958938 0.786816 0
1 0.781796 0
1 0.776562 0
1 0.771038 0
1 0.765209 0
1 0.759106 0
1 0.752712 0
1 0.746044 0
1 0.739116 0
0 0.890593 0
0 0.889723 0
0 0.889113 0
0 0.888747 0
0 0.888685 0
0 0.888945 0
0 0.889601 0
0 0.890776 0
0 0.892638 0
0.0230716 0.895781 0
0.0545968 0.900008 0
0.0937362 0.902037 0
0.136889 0.902846 0
0.185199 0.902068 0
0.24123 0.899046 0
0.306416 0.89337 0
0.379522 0.885359 0
0.456092 0.876219 0
0.533837 0.866575 0
0.613458 0.856229 0
0.691249 0.846204 0
0.763287 0.837537 0
0.828199 0.83061 0
0.886946 0.825177 0
0.942672 0.820371 0
0.999146 0.815183 0
1 0.80975 0
1 0.803998 0
1 0.797955 0
1 0.791638 0
1 0.785031 0
1 0.778164 0
1 0.771054 0
0 0.928237 0
0 0.927214 0
0 0.926406 0
0 0.925826 0
0 0.925505 0
0 0.925475 0
0 0.925795 0
0 0.926543 0
0 0.927886 0
0.0225681 0.93019 0
0.0528725 0.934401 0
0.0899367 0.936614 0
0.131182 0.937499 0
0.176974 0.936996 0
0.229541 0.934447 0
0.290929 0.929335 0
0.361196 0.921645 0
0.436606 0.912367 0
0.51313 0.902617 0
0.591943 0.892073 0
0.670314 0.881437 0
0.744198 0.871855 0
0.811078 0.863981 0
0.871153 0.857771 0
0.927031 0.852506 0
0.982132 0.847288 0
1 0.841505 0
1 0.835538 0
1 0.829282 0
1 0.822766 0
1 0.816007 0
1 0.808988 0
1 0.801755 0
0 0.965515 0
0 0.964279 0
0 0.963226 0
0 0.962356 0
0 0.96173 0
0 0.961349 0
0 0.961273 0
0 0.961563 0
0 0.962356 0
