shaders/LUTs/misc/custom_4_3_2.cube
TITLE "Generated by Resolve"
# Add the options shown below to your cube file depending on what you need for your LUT to work (especially colorspace and gamma correction).
# MAKE SURE TO ADD EXACTLY ONE "# " BEFORE ALL SETTINGS OR THIS FILE MAY NOT WORK PROPERLY.
#   output mapping - 0:none 1:divide by 16 2:reinhard 3:Hable 4:ACES/UE4 (default)
# The following setting has two hashtags and is therefore disabled
## viewing transform: 4
#   output mapping - 0:sRGB 1:ACEScg(raw) 2:ACES2065-1
# output colorspace: 1
# gamma correction: on
LUT_3D_SIZE 9
0.000640879 0.000518807 0.00120546
0.148959 0 0
0.319905 0 0
0.496681 0 0
0.68423 0 0
0.874723 0 0
1 0 0
1 0 0
1 0 0
0 0.0932937 0
0.0969863 0.100877 0
0.273121 0.072221 0
0.43679 0 0
0.60647 0 0
0.781323 0 0
0.94992 0 0
1 0 0
1 0 0
0 0.195254 0
0 0.226261 0
0.222873 0.224445 0
0.414389 0.200916 0
0.5991 0.152941 0
0.783688 0.00872816 0
0.957595 0 0
1 0 0
1 0 0
0 0.297093 0
0 0.346731 0
0.0953994 0.357259 0
0.357183 0.35021 0
0.567102 0.32668 0
0.765469 0.287037 0
0.952087 0.223774 0
1 0.1028 0
1 0 0
0 0.402808 0
0 0.476905 0
0 0.499794 0
0.234775 0.502663 0
0.505852 0.485008 0
0.729183 0.460899 0
0.929 0.427588 0
1 0.383688 0
1 0.325154 0
0 0.511055 0
0 0.619303 0
0 0.649592 0
0 0.661097 0
0.394797 0.642405 0
0.666621 0.623758 0
0.887663 0.600946 0
1 0.572412 0
1 0.538399 0
0 0.622812 0
0 0.771801 0
0 0.81088 0
0 0.829313 0
0.0319371 0.810864 0
0.554803 0.789136 0
0.818173 0.771344 0
1 0.749691 0
1 0.724269 0
0 0.748165 0
0 0.933394 0
0 0.979767 0
0 1 0
0 0.985946 0
0.358419 0.96318 0
0.703075 0.940749 0
0.947738 0.922301 0
1 0.902342 0
0 0.878904 0
0 1 0
0 1 0
0 1 0
0 1 0
0 1 0
0.524056 1 0
0.823194 1 0
1 1 0
0 0 0.127947
0.14139 0 0.137896
0.311833 0 0.132143
0.485176 0 0.119722
0.668208 0 0.09691
0.854627 0 0.053666
1 0 0
1 0 0
1 0 0
0 0.0867628 0.135164
0.0898299 0.0960403 0.117983
0.265751 0.0692912 0.112398
0.428779 0 0.101671
0.597314 0 0.0814069
0.771252 0 0.0415808
0.940032 0 0
1 0 0
1 0 0
0 0.209873 0.0564889
0 0.231662 0.046479
0.21886 0.222766 0.0849165
0.411795 0.199695 0.0719463
0.596857 0.151781 0.0436255
0.782071 0.00683604 0
0.956405 0 0
1 0 0
1 0 0
0 0.344244 0
0 0.368994 0
0.0819104 0.370413 0
0.357305 0.351492 0
0.569497 0.328115 0
0.771466 0.289021 0
0.960021 0.225742 0
1 0.104494 0
1 0 0
0 0.483787 0
0 0.514839 0
0 0.525368 0
0.24889 0.512551 0
0.511482 0.490944 0
0.739361 0.46746 0
0.940795 0.434073 0
1 0.389822 0
1 0.330602 0
0 0.605768 0
0 0.666224 0
0 0.683696 0
0 0.675914 0
0.4112 0.654429 0
0.675639 0.632319 0
0.897627 0.608881 0
1 0.579507 0
1 0.543954 0
0 0.728084 0
0 0.826871 0
0 0.850141 0
0 0.845335 0
0.10605 0.826062 0
0.569696 0.799207 0
0.822232 0.776379 0
1 0.75201 0
1 0.722011 0
0 0.856931 0
0 0.995163 0
0 1 0
0 1 0
0 0.997253 0
0.377096 0.963592 0
0.700359 0.928512 0
0.932738 0.901518 0
1 0.874083 0
0 0.989807 0
0 1 0
0 1 0
0 1 0
0 1 0
0 1 0
0.531594 1 0
0.801251 1 0
1 1 0
0 0 0.251774
0.127062 0 0.270878
0.304006 0 0.26685
0.478004 0 0.258732
0.660273 0 0.246509
0.84564 0 0.229099
1 0 0.206332
1 0 0.178195
1 0 0.141726
0 0.0759442 0.271244
0.0746624 0.0914015 0.246479
0.258701 0.0664683 0.239811
0.423606 0 0.233829
0.592554 0 0.223911
0.766491 0 0.209384
0.935439 0 0.189181
1 0 0.162982
1 0 0.128527
0 0.1906 0.245029
0 0.219181 0.236896
0.214954 0.221057 0.228351
0.407584 0.19823 0.225971
0.593256 0.150103 0.216922
0.779202 0.00357061 0.202441
0.954055 0 0.180896
1 0 0.152239
1 0 0.112978
0 0.309255 0.173144
0 0.375036 0.137377
0.107195 0.364523 0.162219
0.353246 0.350729 0.201526
0.567498 0.32752 0.191989
0.770443 0.288334 0.176257
0.959487 0.224826 0.152789
1 0.102708 0.11873
1 0 0.0610819
0 0.442802 0.0211032
0 0.522911 0
0 0.517433 0
0.252018 0.512642 0.0462348
0.509224 0.490791 0.13283
0.738186 0.467109 0.108339
0.939879 0.433494 0.0649271
1 0.389151 0
1 0.329824 0
0 0.592874 0
0 0.665492 0
0 0.674022 0
0 0.674525 0
0.414542 0.656062 0
0.673457 0.631525 0
0.895445 0.607614 0
1 0.57821 0
1 0.542412 0
0 0.751644 0
0 0.815808 0
0 0.838926 0
0 0.842771 0
0.13048 0.825483 0
0.571832 0.798184 0
0.815564 0.769848 0
1 0.742061 0
1 0.711879 0
0 0.897536 0
0 0.970153 0
0 1 0
0 1 0
0 0.98761 0
0.380804 0.952636 0
0.697185 0.916777 0
0.920974 0.886854 0
1 0.859251 0
0 1 0
0 1 0
0 1 0
0 1 0
0 1 0
0 1 0
0.533318 1 0
0.799313 1 0
1 1 0
0 0 0.379675
0.0968643 0 0.410727
0.291722 0 0.406348
0.469017 0 0.398138
0.651972 0 0.387488
0.831662 0 0.372259
1 0 0.357122
1 0 0.339315
1 0 0.318975
0 0.0641947 0.40618
0.0336461 0.0853895 0.375952
0.247395 0.0619974 0.366125
0.416052 0 0.360952
0.586221 0 0.353185
0.760525 0 0.343023
0.929915 0 0.32987
1 0 0.314519
1 0 0.296193
0 0.181674 0.380926
0 0.213153 0.379995
0.204166 0.216007 0.367483
0.400305 0.195972 0.360464
0.587991 0.147677 0.354482
0.774365 0 0.345281
0.949813 0 0.332296
1 0 0.316915
1 0 0.298268
0 0.292424 0.351843
0 0.344533 0.358007
0.0942092 0.351202 0.348531
0.347631 0.349722 0.345388
0.562585 0.325994 0.34403
0.766598 0.286748 0.335988
0.956191 0.222995 0.324742
1 0.0993057 0.310384
1 0 0.291478
0 0.414694 0.281163
0 0.498512 0.271138
0 0.527123 0.245884
0.26099 0.50811 0.276936
0.503761 0.489357 0.320455
0.733989 0.465522 0.31165
0.936278 0.43183 0.299397
1 0.38732 0.283955
1 0.327657 0.265003
0 0.547417 0.182681
0 0.68275 0.0634775
0 0.672786 0.141024
0 0.666194 0.164706
0.414755 0.654856 0.210819
0.668177 0.629145 0.265126
0.890883 0.605142 0.250217
1 0.575296 0.231052
1 0.538537 0.206668
0 0.691402 0
0 0.857939 0
0 0.824491 0
0 0.830213 0
0.154482 0.82211 0
0.569772 0.7935 0.0623484
0.806455 0.761746 0.148302
1 0.734142 0.114366
1 0.703517 0.057969
0 0.852613 0
0 1 0
0 0.979919 0
0 0.992203 0
0 0.975692 0
0.38349 0.944198 0
0.694087 0.908415 0
0.910979 0.876051 0
1 0.847562 0
0 1 0
0 1 0
0 1 0
0 1 0
0 1 0
0 1 0
0.535103 1 0
0.805158 1 0
1 1 0
0 0 0.530999
0 0 0.579522
0.269337 0 0.573922
0.455344 0 0.563943
0.641245 0 0.552407
0.82298 0 0.536324
0.994995 0 0.522744
1 0 0.507607
1 0 0.491295
0 0.0483406 0.556374
0 0.0763867 0.527733
0.226871 0.0539712 0.512413
0.404196 0 0.506737
0.57821 0 0.499763
0.754025 0 0.490852
0.924331 0 0.479942
1 0 0.467475
1 0 0.453635
0 0.172137 0.530129
0 0.206531 0.541573
0.181216 0.21091 0.523766
0.388296 0.192737 0.512993
0.580041 0.143755 0.507988
0.768521 0 0.500908
0.945052 0 0.490913
1 0 0.479103
1 0 0.465766
0 0.283543 0.501625
0 0.333776 0.531716
0.0377813 0.342046 0.525109
0.337957 0.343801 0.512535
0.554971 0.324193 0.50605
0.761288 0.284733 0.500648
0.952163 0.220432 0.493156
1 0.0939193 0.483604
1 0 0.470527
0 0.396948 0.469993
0 0.472694 0.508293
0 0.489113 0.504707
0.256214 0.49189 0.493004
0.496223 0.488426 0.492668
0.72723 0.463416 0.489021
0.93077 0.429633 0.481315
1 0.385107 0.471992
1 0.325567 0.461326
0 0.524285 0.398428
0 0.626032 0.430411
0 0.652522 0.415778
0 0.672389 0.394141
0.41912 0.649393 0.422431
0.660334 0.626642 0.464424
0.884581 0.602518 0.455787
1 0.572106 0.444862
1 0.535256 0.43212
0 0.652674 0.314778
0 0.804654 0.310674
0 0.852323 0.256962
0 0.823911 0.310842
0.205966 0.810056 0.327077
0.567041 0.789517 0.36437
0.797833 0.756252 0.407218
1 0.728069 0.393088
1 0.696742 0.377417
0 0.799115 0.17261
0 1 0
0 1 0
0 0.967773 0.158251
0 0.956664 0.145647
0.387854 0.93518 0.196551
0.689982 0.900984 0.277287
0.900771 0.866773 0.317968
1 0.839002 0.300084
0 0.958755 0
0 1 0
0 1 0
0 1 0
0 1 0
0 1 0
0.537987 1 0
0.814801 1 0.0910964
1 1 0.188006
0 0 0.693248
0 0 0.75285
0.232975 0 0.745846
0.435889 0 0.733822
0.622614 0 0.714763
0.812039 0 0.703731
0.985214 0 0.690532
1 0 0.676432
1 0 0.661723
0 0.024918 0.722576
0 0.0624094 0.690776
0.191424 0.0401923 0.67042
0.38674 0 0.664714
0.566522 0 0.65803
0.744427 0 0.649332
0.916777 0 0.64004
1 0 0.62945
1 0 0.617746
0 0.160449 0.698955
0 0.198703 0.714183
0.133471 0.204059 0.689479
0.369375 0.188006 0.674388
0.568521 0.13785 0.670466
0.759121 0 0.663706
0.937469 0 0.655375
1 0 0.646174
1 0 0.635355
0 0.274434 0.672435
0 0.327382 0.711147
0 0.336492 0.700862
0.319432 0.33904 0.682506
0.542184 0.32105 0.672328
0.752071 0.281285 0.668284
0.944762 0.216159 0.662577
1 0.0846418 0.655192
1 0 0.645594
0 0.387228 0.646159
0 0.462303 0.698894
0 0.476921 0.695079
0.23299 0.482322 0.686213
0.486397 0.482475 0.671122
0.718349 0.461372 0.6636
0.924224 0.427466 0.657832
1 0.382467 0.650507
1 0.322011 0.64213
0 0.502266 0.619181
0 0.602853 0.676982
0 0.623514 0.672679
0 0.633585 0.663828
0.413138 0.631907 0.647868
0.649989 0.624613 0.647364
0.876905 0.600244 0.640543
1 0.56907 0.631342
1 0.530831 0.620295
0 0.631891 0.547707
0 0.763806 0.598901
0 0.788693 0.587655
0 0.803296 0.566308
0 0.813153 0.544564
0.566583 0.780621 0.565057
0.786755 0.750546 0.601694
0.992081 0.722728 0.590158
1 0.691432 0.577783
0 0.763714 0.468208
0 0.936538 0.496056
0 0.974212 0.466392
0 0.994446 0.413901
0 0.944915 0.458412
0.407324 0.921462 0.467903
0.685756 0.895186 0.49836
0.890929 0.860258 0.537499
1 0.835294 0.526253
0 0.908888 0.364981
0 1 0.332341
0 1 0.246403
0 1 0.245869
0 1 0.346731
0 1 0.340871
0.544717 1 0.375921
0.823713 1 0.442405
1 1 0.512093
0 0 0.877226
0 0 0.967605
0.15201 0 0.957961
0.402548 0 0.941466
0.602411 0 0.916503
0.796353 0 0.902159
0.972229 0 0.886534
1 0 0.87042
1 0 0.854185
0 0 0.893339
0 0.0378271 0.873121
0.118624 0.0165713 0.845655
0.35935 0 0.838254
0.548669 0 0.828794
0.73164 0 0.819547
0.90602 0 0.809094
1 0 0.797986
1 0 0.787549
0 0.147616 0.867247
0 0.188128 0.90602
0 0.195056 0.877302
0.338659 0.181048 0.855772
0.550042 0.128313 0.850263
0.746227 0 0.843946
0.927367 0 0.835569
1 0 0.825986
1 0 0.817075
0 0.264775 0.841031
0 0.318868 0.908934
0 0.329473 0.898238
0.284108 0.332769 0.87483
0.522911 0.317006 0.859831
0.73933 0.276677 0.856245
0.935164 0.210132 0.851057
1 0.0694285 0.844312
1 0 0.834531
0 0.379095 0.814817
0 0.454917 0.902708
0 0.470756 0.902815
0.167102 0.475685 0.889403
0.467994 0.47715 0.868864
0.704417 0.458427 0.857832
0.91397 0.424277 0.852415
1 0.378897 0.845457
1 0.317693 0.837476
0 0.494835 0.788495
0 0.59295 0.889815
0 0.612116 0.891325
0 0.618891 0.880705
0.393271 0.621195 0.867857
0.638315 0.619089 0.847883
0.864347 0.596445 0.837156
1 0.565347 0.827543
1 0.526574 0.814832
0 0.609277 0.763668
0 0.736584 0.871443
0 0.757534 0.869825
0 0.765438 0.856657
0.203769 0.76492 0.836561
0.549554 0.760159 0.812512
0.77351 0.745968 0.794614
0.980423 0.717372 0.780758
1 0.68603 0.766476
0 0.7476 0.690929
0 0.906722 0.793591
0 0.926848 0.783307
0 0.922896 0.751553
0 0.919158 0.717464
0.275349 0.922408 0.681163
0.684581 0.884581 0.695048
0.879362 0.854322 0.72578
1 0.833906 0.718257
0 0.882567 0.612787
0 1 0.694087
0 1 0.661295
0 1 0.614633
0 1 0.557641
0 1 0.594476
0.565713 1 0.621759
0.832425 1 0.67924
1 1 0.76408
0 0 1
0 0 1
0 0 1
0.346319 0 1
0.570535 0 1
0.773571 0 1
0.954162 0 1
1 0 1
1 0 1
0 0 1
0 0 1
0 0 1
0.31104 0 1
0.521385 0 1
0.712535 0 1
0.891447 0 1
1 0 0.998962
1 0 0.988724
0 0.128527 1
0 0.172641 1
0 0.181704 1
0.282902 0.169757 1
0.52137 0.11252 1
0.726482 0 1
0.912352 0 1
1 0 1
1 0 1
0 0.251972 1
0 0.308064 1
0 0.319921 1
0.210636 0.323674 1
0.491203 0.310842 1
0.71931 0.269566 1
0.920363 0.200549 1
1 0.03888 1
1 0 1
0 0.368383 1
0 0.446052 1
0 0.462089 1
0 0.468284 1
0.43415 0.470222 1
0.681422 0.453498 1
0.897185 0.418997 1
1 0.373404 1
1 0.31136 1
0 0.486046 0.988647
0 0.585367 1
0 0.604517 1
0 0.612131 1
0.34461 0.613443 1
0.618173 0.612604 1
0.846799 0.592432 1
1 0.560021 1
1 0.521416 1
0 0.600595 0.960967
0 0.729778 1
0 0.751217 1
0 0.758373 1
0.0769207 0.754345 1
0.536126 0.747189 1
0.759793 0.738003 1
0.965057 0.712184 0.994873
1 0.680186 0.978042
0 0.721767 0.93518
0 0.877012 1
0 0.89633 1
0 0.890517 1
0 0.880598 1
0.409888 0.869764 0.989029
0.681163 0.858656 0.960952
0.86891 0.84889 0.939773
1 0.833616 0.936568
0 0.865156 0.86717
0 1 1
0 1 0.991867
0 1 0.946242
0 1 0.906325
0 1 0.885252
0.505348 1 0.893812
0.850217 1 0.959106
1 1 1
0 0 1
0 0 1
0 0 1
0.232044 0 1
0.519341 0 1
0.739284 0 1
0.928069 0 1
1 0 1
1 0 1
0 0 1
0 0 1
0 0 1
0.219196 0 1
0.478096 0 1
0.683894 0 1
0.869963 0 1
1 0 1
1 0 1
0 0.0990768 1
0 0.148745 1
0 0.160769 1
0.161456 0.151751 1
0.474525 0.0843671 1
0.69601 0 1
0.889799 0 1
1 0 1
1 0 1
0 0.23592 1
0 0.293462 1
0 0.306691 1
0 0.311742 1
0.437949 0.301457 1
0.686763 0.258213 1
0.896544 0.184985 1
1 0 1
1 0 1
0 0.355993 1
0 0.434562 1
0 0.451621 1
0 0.458839 1
0.371252 0.460441 1
0.646448 0.44715 1
0.873014 0.412055 1
1 0.365164 1
1 0.301534 1
0 0.474815 1
0 0.575463 1
0 0.595254 1
0 0.603479 1
0.248798 0.604913 1
0.583093 0.604608 1
0.820188 0.586908 1
1 0.553903 1
1 0.51429 1
0 0.59115 1
0 0.719966 1
0 0.742748 1
0 0.749004 1
0 0.745312 1
0.492012 0.737758 1
0.736553 0.728939 1
0.943877 0.706355 1
1 0.674128 1
0 0.712886 1
0 0.868925 1
0 0.887755 1
0 0.881163 1
0 0.871931 1
0.33724 0.860487 1
0.650111 0.849561 1
0.854902 0.842695 1
1 0.834913 1
0 0.837095 1
0 1 1
0 1 1
0 1 1
0 0.990784 1
0 0.996887 1
0.562448 1 1
0.84036 1 1
1 1 1
