shaders/LUTs/misc/custom_1.cube
TITLE "Generated by Resolve"
LUT_3D_SIZE 33
0 0 0
0 0 0
0.17879 0 0
0.295781 0 0
0.394736 0 0
0.484215 0 0
0.566644 0 0
0.643748 0 0
0.717494 0 0
0.78851 0 0
0.857053 0 0
0.92343 0 0
0.987869 0 0
1 0 0
1 0 0
1 0 0
1 0 0
1 0 0
1 0 0
1 0 0
1 0 0
1 0 0
1 0 0
1 0 0
1 0 0
1 0 0
1 0 0
1 0 0
1 0 0
1 0 0
1 0 0
1 0 0
1 0 0
0 0 0
0 0 0
0.112291 0 0
0.239429 0 0
0.344289 0 0
0.436912 0 0
0.522866 0 0
0.603677 0 0
0.680323 0 0
0.753536 0 0
0.823835 0 0
0.891676 0 0
0.957336 0 0
1 0 0
1 0 0
1 0 0
1 0 0
1 0 0
1 0 0
1 0 0
1 0 0
1 0 0
1 0 0
1 0 0
1 0 0
1 0 0
1 0 0
1 0 0
1 0 0
1 0 0
1 0 0
1 0 0
1 0 0
0 0.146075 0
0 0.0845808 0
0.0708629 0.0440986 0
0.188327 0 0
0.297795 0 0
0.395743 0 0
0.485283 0 0
0.568643 0 0
0.647227 0 0
0.721965 0 0
0.793545 0 0
0.862455 0 0
0.929061 0 0
0.993637 0 0
1 0 0
1 0 0
1 0 0
1 0 0
1 0 0
1 0 0
1 0 0
1 0 0
1 0 0
1 0 0
1 0 0
1 0 0
1 0 0
1 0 0
1 0 0
1 0 0
1 0 0
1 0 0
1 0 0
0 0.195102 0
0 0.140093 0
0 0.102266 0
0.154055 0.0863203 0
0.265751 0 0
0.365469 0 0
0.456519 0 0
0.540871 0 0
0.62002 0 0
0.695109 0 0
0.767163 0 0
0.836561 0 0
0.903639 0 0
0.968688 0 0
1 0 0
1 0 0
1 0 0
1 0 0
1 0 0
1 0 0
1 0 0
1 0 0
1 0 0
1 0 0
1 0 0
1 0 0
1 0 0
1 0 0
1 0 0
1 0 0
1 0 0
1 0 0
1 0 0
0 0.23859 0
0 0.197528 0
0 0.168994 0
0.0825666 0.165545 0
0.228717 0.148043 0
0.332601 0.0944686 0
0.426368 0 0
0.51313 0 0
0.594354 0 0
0.671153 0 0
0.74432 0 0
0.81442 0 0
0.881895 0 0
0.947097 0 0
1 0 0
1 0 0
1 0 0
1 0 0
1 0 0
1 0 0
1 0 0
1 0 0
1 0 0
1 0 0
1 0 0
1 0 0
1 0 0
1 0 0
1 0 0
1 0 0
1 0 0
1 0 0
1 0 0
0 0.286488 0
0 0.253239 0
0 0.229114 0
0 0.223377 0
0.175647 0.219409 0
0.295384 0.201923 0
0.393286 0.165331 0
0.482628 0.0681926 0
0.565988 0 0
0.644602 0 0
0.719326 0 0
0.790799 0 0
0.859495 0 0
0.925811 0 0
0.990021 0 0
1 0 0
1 0 0
1 0 0
1 0 0
1 0 0
1 0 0
1 0 0
1 0 0
1 0 0
1 0 0
1 0 0
1 0 0
1 0 0
1 0 0
1 0 0
1 0 0
1 0 0
1 0 0
0 0.334127 0
0 0.305684 0
0 0.284184 0
0 0.274342 0
0.0321965 0.276036 0
0.248142 0.26804 0
0.356435 0.250782 0
0.449668 0.220661 0
0.5355 0.167498 0
0.616083 0 0
0.69247 0 0
0.765377 0 0
0.835325 0 0
0.902754 0 0
0.967971 0 0
1 0 0
1 0 0
1 0 0
1 0 0
1 0 0
1 0 0
1 0 0
1 0 0
1 0 0
1 0 0
1 0 0
1 0 0
1 0 0
1 0 0
1 0 0
1 0 0
1 0 0
1 0 0
0 0.380499 0
0 0.355276 0
0 0.335592 0
0 0.324224 0
0 0.325093 0
0.176806 0.322881 0
0.312459 0.313176 0
0.413443 0.296254 0
0.502846 0.269764 0
0.585779 0.229068 0
0.664012 0.159243 0
0.738476 0 0
0.809766 0 0
0.87837 0 0
0.944625 0 0
1 0 0
1 0 0
1 0 0
1 0 0
1 0 0
1 0 0
1 0 0
1 0 0
1 0 0
1 0 0
1 0 0
1 0 0
1 0 0
1 0 0
1 0 0
1 0 0
1 0 0
1 0 0
0 0.425391 0
0 0.402502 0
0 0.384146 0
0 0.372137 0
0 0.369055 0
0 0.371481 0
0.254475 0.366369 0
0.371664 0.355749 0
0.467277 0.339162 0
0.553475 0.315099 0
0.633921 0.280888 0
0.71014 0.230625 0
0.782895 0.140551 0
0.852766 0 0
0.920134 0 0
0.985321 0 0
1 0 0
1 0 0
1 0 0
1 0 0
1 0 0
1 0 0
1 0 0
1 0 0
1 0 0
1 0 0
1 0 0
1 0 0
1 0 0
1 0 0
1 0 0
1 0 0
1 0 0
0 0.468879 0
0 0.447761 0
0 0.430426 0
0 0.418173 0
0 0.412665 0
0 0.415564 0
0.162234 0.414145 0
0.320272 0.407477 0
0.427146 0.396292 0
0.518517 0.380056 0
0.601984 0.357748 0
0.680278 0.327657 0
0.754711 0.286687 0
0.825956 0.226856 0
0.89453 0.105852 0
0.960769 0 0
1 0 0
1 0 0
1 0 0
1 0 0
1 0 0
1 0 0
1 0 0
1 0 0
1 0 0
1 0 0
1 0 0
1 0 0
1 0 0
1 0 0
1 0 0
1 0 0
1 0 0
0 0.51107 0
0 0.491341 0
0 0.474845 0
0 0.462547 0
0 0.455589 0
0 0.455833 0
0 0.458045 0
0.251041 0.454414 0
0.379858 0.446738 0
0.479744 0.435203 0
0.567636 0.419333 0
0.648707 0.398352 0
0.725109 0.37116 0
0.79794 0.335836 0
0.867842 0.288472 0
0.935225 0.218357 0
1 0 0
1 0 0
1 0 0
1 0 0
1 0 0
1 0 0
1 0 0
1 0 0
1 0 0
1 0 0
1 0 0
1 0 0
1 0 0
1 0 0
1 0 0
1 0 0
1 0 0
0 0.552087 0
0 0.533471 0
0 0.517678 0
0 0.505425 0
0 0.497551 0
0 0.495247 0
0 0.498817 0
0.126802 0.497856 0
0.320821 0.492866 0
0.435309 0.484504 0
0.529992 0.47274 0
0.614939 0.457206 0
0.693889 0.437324 0
0.768597 0.412268 0
0.839994 0.380819 0
0.90866 0.340673 0
0.97496 0.286976 0
1 0.20499 0
1 0 0
1 0 0
1 0 0
1 0 0
1 0 0
1 0 0
1 0 0
1 0 0
1 0 0
1 0 0
1 0 0
1 0 0
1 0 0
1 0 0
1 0 0
0 0.59202 0
0 0.57435 0
0 0.559136 0
0 0.54699 0
0 0.538521 0
0 0.5346 0
0 0.536812 0
0 0.538521 0
0.238682 0.53579 0
0.3823 0.529854 0
0.487709 0.520989 0
0.578271 0.509117 0
0.660655 0.493889 0
0.737728 0.474907 0
0.81091 0.451545 0
0.880995 0.422934 0
0.948516 0.387579 0
1 0.342824 0
1 0.282567 0
1 0.185901 0
1 0 0
1 0 0
1 0 0
1 0 0
1 0 0
1 0 0
1 0 0
1 0 0
1 0 0
1 0 0
1 0 0
1 0 0
1 0 0
0 0.630991 0
0 0.614099 0
0 0.59942 0
0 0.587396 0
0 0.578546 0
0 0.573495 0
0 0.57319 0
0 0.576852 0
0 0.576196 0
0.315068 0.572259 0
0.438773 0.565637 0
0.537682 0.55642 0
0.624872 0.544488 0
0.705028 0.529564 0
0.780392 0.511345 0
0.852171 0.489342 0
0.921065 0.462913 0
0.987533 0.431052 0
1 0.39205 0
1 0.342718 0
1 0.275456 0
1 0.15877 0
1 0 0
1 0 0
1 0 0
1 0 0
1 0 0
1 0 0
1 0 0
1 0 0
1 0 0
1 0 0
1 0 0
0 0.669078 0
0 0.652873 0
0 0.638636 0
0 0.626764 0
0 0.617655 0
0 0.611795 0
0 0.609842 0
0 0.613046 0
0 0.614481 0
0.216159 0.612329 0
0.379782 0.607553 0
0.491722 0.600381 0
0.585687 0.590906 0
0.669993 0.578958 0
0.748165 0.56434 0
0.821988 0.546761 0
0.892485 0.525887 0
0.960266 0.501198 0
1 0.472007 0
1 0.43711 0
1 0.394598 0
1 0.340627 0
1 0.265644 0
1 0.116243 0
1 0 0
1 0 0
1 0 0
1 0 0
1 0 0
1 0 0
1 0 0
1 0 0
1 0 0
0 0.706355 0
0 0.69073 0
0 0.676905 0
0 0.665187 0
0 0.655894 0
0 0.649439 0
0 0.646326 0
0 0.647395 0
0 0.650874 0
0 0.650431 0
0.303136 0.647257 0
0.438117 0.64181 0
0.542016 0.634241 0
0.631998 0.624552 0
0.713817 0.612619 0
0.790204 0.598276 0
0.862608 0.581277 0
0.931914 0.561364 0
0.998672 0.538109 0
1 0.511009 0
1 0.479225 0
1 0.441459 0
1 0.395468 0
1 0.336721 0
1 0.252888 0
1 0 0
1 0 0
1 0 0
1 0 0
1 0 0
1 0 0
1 0 0
1 0 0
0 0.742901 0
0 0.727794 0
0 0.714336 0
0 0.70277 0
0 0.69337 0
0 0.686473 0
0 0.68246 0
0 0.68191 0
0 0.685588 0
0 0.686824 0
0.178744 0.68513 0
0.37261 0.681163 0
0.492241 0.675181 0
0.590173 0.667308 0
0.676844 0.657481 0
0.756497 0.645594 0
0.83125 0.631495 0
0.902373 0.615015 0
0.970565 0.595911 0
1 0.573877 0
1 0.54847 0
1 0.519112 0
1 0.484886 0
1 0.444343 0
1 0.394873 0
1 0.33106 0
1 0.236851 0
1 0 0
1 0 0
1 0 0
1 0 0
1 0 0
1 0 0
0 0.778759 0
0 0.764126 0
0 0.750988 0
0 0.739574 0
0 0.730114 0
0 0.722866 0
0 0.718166 0
0 0.716442 0
0 0.718547 0
0 0.721691 0
0 0.721401 0
0.284459 0.718776 0
0.433677 0.714183 0
0.543328 0.707805 0
0.636561 0.699672 0
0.720424 0.689738 0
0.798123 0.677897 0
0.871412 0.664057 0
0.941314 0.64802 0
1 0.629633 0
1 0.608621 0
1 0.584649 0
1 0.55726 0
1 0.525795 0
1 0.489235 0
1 0.44593 0
1 0.39292 0
1 0.323705 0
1 0.216724 0
1 0 0
1 0 0
1 0 0
1 0 0
0 0.813993 0
0 0.799771 0
0 0.786923 0
0 0.775662 0
0 0.766171 0
0 0.758679 0
0 0.753445 0
0 0.750805 0
0 0.751293 0
0 0.755123 0
0 0.756268 0
0.104768 0.754879 0
0.360769 0.751522 0
0.48957 0.746441 0
0.59202 0.739727 0
0.681437 0.731395 0
0.76286 0.721386 0
0.838834 0.709621 0
0.91075 0.69601 0
0.979538 0.6804 0
1 0.662623 0
1 0.642496 0
1 0.619745 0
1 0.594003 0
1 0.564752 0
1 0.531258 0
1 0.492424 0
1 0.446387 0
1 0.389731 0
1 0.314641 0
1 0.19086 0
1 0 0
1 0 0
0 0.848615 0
0 0.834775 0
0 0.822217 0
0 0.811093 0
0 0.801602 0
0 0.793896 0
0 0.788235 0
0 0.784878 0
0 0.784207 0
0 0.787121 0
0 0.789822 0
0 0.789654 0
0.257328 0.787442 0
0.425559 0.78352 0
0.541848 0.778027 0
0.638773 0.771038 0
0.725002 0.762539 0
0.804288 0.752483 0
0.87866 0.740795 0
0.94934 0.727398 0
1 0.712154 0
1 0.694957 0
1 0.675608 0
1 0.653895 0
1 0.629526 0
1 0.602106 0
1 0.571084 0
1 0.535637 0
1 0.494575 0
1 0.445777 0
1 0.385351 0
1 0.303716 0
1 0.155489 0
0 0.882704 0
0 0.869215 0
0 0.856901 0
0 0.84593 0
0 0.836439 0
0 0.828595 0
0 0.822583 0
0 0.818647 0
0 0.81706 0
0 0.818357 0
0 0.822171 0
0 0.823209 0
0 0.822095 0
0.343862 0.819226 0
0.483818 0.814817 0
0.591394 0.808988 0
0.683909 0.80177 0
0.767391 0.793133 0
0.84477 0.783062 0
0.917708 0.771466 0
0.987213 0.758267 0
1 0.743389 0
1 0.72668 0
1 0.708019 0
1 0.687205 0
1 0.664027 0
1 0.638148 0
1 0.60914 0
1 0.57641 0
1 0.539071 0
1 0.495781 0
1 0.44419 0
1 0.379782 0
0 0.916274 0
0 0.90309 0
0 0.89102 0
0 0.880186 0
0 0.87071 0
0 0.86276 0
0 0.856474 0
0 0.852049 0
0 0.849744 0
0 0.849897 0
0 0.8533 0
0 0.85565 0
0 0.855589 0
0.217578 0.853712 0
0.413672 0.850309 0
0.537697 0.845502 0
0.638773 0.839399 0
0.727626 0.831983 0
0.808728 0.823255 0
0.884398 0.813153 0
0.956008 0.801648 0
1 0.788663 0
1 0.774075 0
1 0.757839 0
1 0.739788 0
1 0.719783 0
1 0.697627 0
1 0.67306 0
1 0.645747 0
1 0.615228 0
1 0.58085 0
1 0.54165 0
1 0.496147 0
0 0.949371 0
0 0.936492 0
0 0.92462 0
0 0.913924 0
0 0.904479 0
0 0.896437 0
0 0.889921 0
0 0.885115 0
0 0.8822 0
0 0.881453 0
0 0.883391 0
0 0.887053 0
0 0.888045 0
0 0.887129 0
0.320989 0.884642 0
0.475013 0.880781 0
0.588434 0.875654 0
0.684382 0.869307 0
0.770153 0.861738 0
0.849149 0.852918 0
0.923262 0.842832 0
0.993637 0.831418 0
1 0.818601 0
1 0.804318 0
1 0.788495 0
1 0.770993 0
1 0.751705 0
1 0.730449 0
1 0.707027 0
1 0.681163 0
1 0.652476 0
1 0.620493 0
1 0.584497 0
0 0.982025 0
0 0.96939 0
0 0.957748 0
0 0.947158 0
0 0.937758 0
0 0.929656 0
0 0.922957 0
0 0.91783 0
0 0.914412 0
0 0.912932 0
0 0.913741 0
0 0.917418 0
0 0.919524 0
0 0.919539 0
0.151537 0.917937 0
0.397772 0.914946 0
0.530999 0.910719 0
0.636698 0.905303 0
0.728481 0.898741 0
0.811597 0.891051 0
0.888716 0.88217 0
0.961395 0.872084 0
1 0.860761 0
1 0.848127 0
1 0.834119 0
1 0.818677 0
1 0.801663 0
1 0.783017 0
1 0.76257 0
1 0.740154 0
1 0.715526 0
1 0.688411 0
1 0.658412 0
0 1 0
0 1 0
0 0.990402 0
0 0.979934 0
0 0.970581 0
0 0.962432 0
0 0.955596 0
0 0.950179 0
0 0.946349 0
0 0.944259 0
0 0.944183 0
0 0.946685 0
0 0.950088 0
0 0.951034 0
0 0.950271 0
0.29044 0.948104 0
0.463081 0.944701 0
0.58323 0.940139 0
0.682979 0.934493 0
0.771282 0.927764 0
0.852064 0.919936 0
0.927504 0.911025 0
0.998871 0.900969 0
1 0.889723 0
1 0.877272 0
1 0.863508 0
1 0.848417 0
1 0.831861 0
1 0.813794 0
1 0.794049 0
1 0.772519 0
1 0.748989 0
1 0.723217 0
0 1 0
0 1 0
0 1 0
0 1 0
0 1 0
0 0.994797 0
0 0.987823 0
0 0.982177 0
0 0.977996 0
0 0.975402 0
0 0.974609 0
0 0.975967 0
0 0.979736 0
0 0.981659 0
0 0.981735 0
0 0.980362 0
0.377279 0.977722 0
0.521691 0.973953 0
0.632624 0.969116 0
0.727626 0.963256 0
0.812955 0.956374 0
0.891676 0.94847 0
0.96556 0.939513 0
1 0.929473 0
1 0.918334 0
1 0.906035 0
1 0.892515 0
1 0.877745 0
1 0.861616 0
1 0.844053 0
1 0.824979 0
1 0.804211 0
1 0.781643 0
0 1 0
0 1 0
0 1 0
0 1 0
0 1 0
0 1 0
0 1 0
0 1 0
0 1 0
0 1 0
0 1 0
0 1 0
0 1 0
0 1 0
0 1 0
0 1 0
0.248417 1 0
0.447807 1 0
0.575784 1 0
0.679789 0.997665 0
0.770855 0.991623 0
0.853605 0.984604 0
0.93048 0.976623 0
1 0.967651 0
1 0.957656 0
1 0.946593 0
1 0.934447 0
1 0.921157 0
1 0.906676 0
1 0.890929 0
1 0.873854 0
1 0.855344 0
1 0.835309 0
0 1 0
0 1 0
0 1 0
0 1 0
0 1 0
0 1 0
0 1 0
0 1 0
0 1 0
