shaders/LUTs/misc/custom_2.cube
TITLE "Generated by Resolve"
LUT_3D_SIZE 9
# viewing transform: 4
# output colorspace: 1
# gamma correction: on
0 0.00205997 0.0203098
0.130648 0 0.0253605
0.382559 0 0.000289921
0.682322 0 0
0.914717 0 0
1 0 0
1 0 0
1 0 0
1 0 0
0 0.10901 0
0.0651102 0.105135 0.00686656
0.276478 0.0820478 0
0.57937 0.0368811 0
0.843534 0.00567636 0
1 0 0
1 0 0
1 0 0
1 0 0
0 0.228931 0
0.00248722 0.226749 0
0.185473 0.218692 0
0.479332 0.184543 0
0.782254 0.151751 0
1 0.13901 0
1 0.126253 0
1 0.111818 0
1 0.095079 0
0 0.372198 0
0 0.371511 0
0.103685 0.378332 0
0.371588 0.358312 0
0.694392 0.324468 0
0.950545 0.308431 0
1 0.294682 0
1 0.279438 0
1 0.262562 0
0 0.53312 0
0 0.533928 0
0.0435035 0.545434 0
0.269001 0.53724 0
0.588312 0.503746 0
0.872312 0.48043 0
1 0.468421 0
1 0.453422 0
1 0.435264 0
0 0.697612 0
0 0.696529 0
0 0.706767 0
0.187076 0.70985 0
0.483452 0.683085 0
0.792508 0.651743 0
1 0.63711 0
1 0.619333 0
1 0.596979 0
0 0.852613 0
0 0.851286 0
0 0.856657 0
0.143389 0.86685 0
0.398489 0.847608 0
0.711833 0.809781 0
0.958938 0.786816 0
1 0.765209 0
1 0.739116 0
0 1 0
0 0.99733 0
0 0.996002 0
0.12047 1 9.15541e-05
0.326177 0.990173 0
0.627008 0.948775 0
0.895796 0.913298 0
1 0.888579 0
1 0.860182 0
0 1 0.00415045
0 1 0.00131228
0 1 0.0010071
0.0954452 1 0.00915541
0.260349 1 0.00976577
0.533043 1 0
0.824689 1 0
1 0.999863 0
1 0.971115 0
0 0.000686656 0.119509
0.12256 0 0.125383
0.36939 0 0.10164
0.670192 0 0.0634318
0.905409 0 0.0441291
1 0 0.0293431
1 0 0.0149538
1 0 0.00146487
1 0 0
0 0.108232 0.0994888
0.0584878 0.10454 0.107073
0.26482 0.083238 0.0967575
0.566796 0.0389563 0.0632029
0.835492 0.00723278 0.0421149
1 0 0.0352789
1 0 0.0291447
1 0 0.0236057
1 0 0.0181125
0 0.228901 0.0678874
0 0.22681 0.0820325
0.177539 0.220478 0.0913558
0.46833 0.187915 0.0738384
0.774548 0.154879 0.0552224
1 0.142214 0.0563973
1 0.129702 0.0571145
1 0.115297 0.055375
1 0.0985122 0.0506905
0 0.373648 0.0309148
0 0.373007 0.0475776
0.0990768 0.380789 0.0729076
0.361975 0.362417 0.0722057
0.685481 0.328435 0.0559548
0.94435 0.311467 0.0567025
1 0.297902 0.0607004
1 0.282841 0.0630045
1 0.266026 0.0632029
0 0.53579 0.0127108
0 0.53637 0.0303197
0.0402991 0.547784 0.0589303
0.260426 0.540856 0.0693523
0.578164 0.507973 0.0538949
0.866163 0.483619 0.047013
1 0.471595 0.05243
1 0.456504 0.0547189
1 0.438132 0.0535897
0 0.700404 0.0142367
0 0.699062 0.0264591
0 0.708843 0.0502785
0.18088 0.713024 0.0690166
0.473289 0.68716 0.0581979
0.784604 0.654902 0.0414588
1 0.639597 0.0420844
1 0.621454 0.0402228
1 0.598703 0.0340734
0 0.85565 0.0399786
0 0.854017 0.0483253
0 0.858701 0.0632792
0.138415 0.869047 0.0842145
0.387747 0.850843 0.0769818
0.701015 0.812436 0.0499733
0.95082 0.788159 0.0375372
1 0.766232 0.0279088
1 0.739788 0.0142061
0 1 0.0788739
0 0.999527 0.0822309
0 0.997406 0.0890822
0.115465 1 0.104509
0.315648 0.991928 0.101549
0.614008 0.950652 0.069337
0.886336 0.913725 0.0415808
1 0.888762 0.0259098
1 0.860273 0.00691234
0 1 0.109361
0 1 0.105806
0 1 0.104662
0.0909285 1 0.111559
0.25124 1 0.112856
0.519692 1 0.0831464
0.813336 1 0.0457618
1 0.999741 0.0264591
1 0.97113 0.00679026
0 0 0.239246
0.113146 0 0.244785
0.354803 0 0.221729
0.656489 0 0.182773
0.894911 0 0.162295
1 0 0.147402
1 0 0.132982
1 0 0.119463
1 0 0.107225
0 0.106203 0.215885
0.0508431 0.10277 0.222965
0.252354 0.0833143 0.213718
0.553201 0.0400854 0.180499
0.82649 0.00793469 0.158236
1 0 0.151431
1 0 0.145327
1 0 0.139605
1 0 0.133776
0 0.228077 0.182147
0 0.226062 0.195651
0.169207 0.221515 0.206027
0.456809 0.190661 0.189517
0.766033 0.157473 0.170062
1 0.144839 0.170565
1 0.13257 0.170871
1 0.118227 0.168521
1 0.101534 0.163287
0 0.374609 0.143694
0 0.37409 0.159823
0.0942245 0.382757 0.185412
0.351995 0.366064 0.185809
0.675944 0.332021 0.168902
0.937804 0.314076 0.168078
1 0.300832 0.171817
1 0.285969 0.173739
1 0.26923 0.173465
0 0.53814 0.123842
0 0.538537 0.140703
0.0369116 0.549798 0.168612
0.251926 0.544213 0.179843
0.567788 0.512032 0.164584
0.859754 0.486671 0.156191
1 0.474617 0.161089
1 0.459464 0.162829
1 0.440879 0.161044
0 0.703014 0.122789
0 0.701534 0.134417
0 0.710735 0.157229
0.174884 0.71606 0.176684
0.463203 0.691142 0.1664
0.776455 0.658061 0.148455
1 0.642039 0.147982
1 0.623545 0.145434
1 0.600427 0.138613
0 0.858701 0.146593
0 0.856779 0.154284
0 0.860822 0.168231
0.133639 0.871214 0.188891
0.377111 0.854078 0.182422
0.690013 0.815183 0.154665
0.942824 0.789548 0.140612
1 0.76733 0.13048
1 0.740581 0.116274
0 1 0.183536
0 1 0.186069
0 0.998901 0.191882
0.110689 1 0.206485
0.305501 0.993698 0.204227
0.601083 0.952636 0.172061
0.876875 0.914321 0.142779
1 0.889082 0.126741
1 0.860517 0.107591
0 1 0.212009
0 1 0.207691
0 1 0.205737
0.0877394 1 0.211124
0.242512 1 0.213458
0.5066 1 0.184634
0.801892 1 0.146639
1 0.999741 0.126879
1 0.971252 0.107424
0 0 0.383673
0.101976 0 0.389242
0.338293 0 0.367361
0.640589 0 0.328191
0.882506 0 0.306874
1 0 0.292256
1 0 0.278141
1 0 0.264927
1 0 0.252934
0 0.102174 0.35903
0.0412757 0.0989242 0.365866
0.238117 0.0812848 0.358007
0.53753 0.0392004 0.325475
0.815351 0.00660716 0.302342
1 0 0.295735
1 0 0.289799
1 0 0.284031
1 0 0.277958
0 0.225208 0.324559
0 0.223133 0.337484
0.159075 0.220386 0.349126
0.44329 0.191257 0.333776
0.755123 0.157977 0.313634
0.998474 0.145266 0.313481
1 0.133211 0.313375
1 0.118868 0.310414
1 0.102358 0.304707
0 0.37348 0.285283
0 0.373068 0.300969
0.0873579 0.382483 0.326711
0.339864 0.367468 0.328161
0.66392 0.333425 0.310643
0.929076 0.314443 0.308141
1 0.301549 0.311559
1 0.286885 0.313008
1 0.270191 0.312093
0 0.538308 0.263722
0 0.538491 0.279728
0.0313878 0.549508 0.306752
0.241535 0.545312 0.318685
0.5552 0.513924 0.303532
0.851026 0.487572 0.293431
1 0.475456 0.297551
1 0.460212 0.298497
1 0.441413 0.29575
0 0.70341 0.259403
0 0.701885 0.270283
0 0.71017 0.291493
0.167025 0.716884 0.31162
0.451087 0.692958 0.301625
0.765927 0.659144 0.282231
1 0.642313 0.280217
1 0.623514 0.2766
1 0.600076 0.268696
0 0.859663 0.280018
0 0.857481 0.286687
0 0.860883 0.29926
0.126955 0.871275 0.319158
0.364553 0.855207 0.313024
0.676814 0.815961 0.284153
0.932845 0.788937 0.267948
1 0.766476 0.256809
1 0.739467 0.241566
0 1 0.312993
0 1 0.314229
0 0.998474 0.318517
0.104128 1 0.331685
0.293828 0.99353 0.329519
0.586358 0.952804 0.29691
0.865553 0.913191 0.265553
1 0.887724 0.248508
1 0.859144 0.22855
0 1 0.336843
0 1 0.331151
0 1 0.327779
0.0824598 1 0.33109
0.232471 1 0.333623
0.492088 1 0.305013
0.7888 1 0.265797
1 0.998367 0.24477
1 0.970092 0.224765
0 0 0.528618
0.090898 0 0.534432
0.321813 0 0.514138
0.624414 0 0.475196
0.870085 0 0.453361
1 0 0.43946
1 0 0.426062
1 0 0.413581
1 0 0.402289
0 0.098024 0.504417
0.031693 0.0949111 0.511421
0.224048 0.0790417 0.505379
0.521675 0.0381628 0.474098
0.803906 0.00512703 0.450538
1 0 0.444617
1 0 0.439323
1 0 0.433997
1 0 0.428168
0 0.22211 0.471504
0 0.219638 0.484047
0.148913 0.218875 0.497688
0.429541 0.19147 0.484062
0.743572 0.158099 0.463859
0.988724 0.145159 0.463493
1 0.133242 0.463539
1 0.118822 0.460502
1 0.102495 0.455024
0 0.371954 0.434058
0 0.371588 0.449851
0.0800641 0.381567 0.476219
0.327199 0.368154 0.479332
0.65095 0.334096 0.46183
0.919615 0.314076 0.458305
1 0.301442 0.462043
1 0.286885 0.4636
1 0.270191 0.462699
0 0.537728 0.413657
0 0.537621 0.429419
0.0250553 0.548272 0.456092
0.230579 0.545434 0.469444
0.541634 0.514839 0.4551
0.841123 0.487449 0.443992
1 0.475151 0.447959
1 0.459739 0.448737
1 0.440665 0.445731
0 0.702831 0.409293
0 0.701167 0.420096
0 0.708553 0.440436
0.158221 0.716396 0.461738
0.437797 0.693431 0.45275
0.753811 0.658915 0.432654
0.99881 0.641138 0.42974
1 0.621958 0.425757
1 0.598169 0.417441
0 0.859327 0.430045
0 0.856794 0.436377
0 0.859525 0.44828
0.118898 0.869734 0.467994
0.35053 0.854704 0.462837
0.661814 0.815137 0.433585
0.921172 0.786633 0.415839
1 0.763882 0.404288
1 0.736599 0.388663
0 1 0.462333
0 1 0.462882
0 0.996323 0.46627
0.0959029 1 0.478569
0.280629 0.99144 0.477043
0.569772 0.951095 0.444633
0.852186 0.910231 0.41181
1 0.884459 0.394232
1 0.855848 0.373999
0 1 0.484474
0 1 0.477989
0 1 0.473701
0.074464 1 0.47567
0.220722 1 0.478614
0.475517 1 0.450797
0.773449 1 0.410834
1 0.995071 0.388983
1 0.966888 0.368688
0 0 0.668147
0.0803998 0 0.674449
0.305867 0 0.656046
0.608469 0 0.617716
0.858091 0 0.59559
1 0 0.582681
1 0 0.570245
1 0 0.558709
1 0 0.548287
0 0.0942702 0.645762
0.0226139 0.0912337 0.653117
0.210681 0.0771191 0.649104
0.506203 0.0375067 0.619364
0.792721 0.0040589 0.595666
1 0 0.590539
1 0 0.586023
1 0 0.581277
1 0 0.57583
0 0.219379 0.615503
0 0.216556 0.627894
0.139361 0.217639 0.64358
0.416205 0.191943 0.631861
0.732021 0.158526 0.61178
0.979187 0.145235 0.611231
1 0.13341 0.611521
1 0.118898 0.60853
1 0.102815 0.603418
0 0.370718 0.580652
0 0.370367 0.596674
0.0731212 0.380819 0.623682
0.314809 0.368963 0.628519
0.637919 0.334936 0.611185
0.910307 0.313863 0.606744
1 0.301472 0.610834
1 0.287007 0.612589
1 0.270283 0.611734
0 0.537331 0.561868
0 0.536904 0.577432
0.0189517 0.547066 0.603769
0.22005 0.545602 0.61857
0.528222 0.515862 0.605188
0.831159 0.487465 0.593149
1 0.474907 0.596902
1 0.459312 0.597559
1 0.439933 0.594278
0 0.702403 0.557778
0 0.700603 0.568536
0 0.70724 0.588205
0.149752 0.715938 0.610422
0.424506 0.69398 0.602487
0.741512 0.658763 0.58175
0.987793 0.640085 0.577951
1 0.620417 0.573495
1 0.596246 0.564843
0 0.859098 0.578729
0 0.856168 0.58471
0 0.858244 0.595956
0.110994 0.868193 0.615442
0.336675 0.854154 0.611322
0.646647 0.814328 0.581857
0.909468 0.784344 0.562661
1 0.761257 0.550835
1 0.733715 0.534981
0 1 0.610513
0 0.999344 0.610437
0 0.994156 0.613077
0.0878004 0.997848 0.624613
0.267674 0.989212 0.62385
0.55317 0.949325 0.591928
0.838605 0.907271 0.557961
1 0.881132 0.540063
1 0.852491 0.51986
0 1 0.631678
0 1 0.624613
0 1 0.619684
0.0659953 1 0.620691
0.209094 1 0.624186
0.458824 1 0.597543
0.757748 1 0.557244
0.988495 0.991547 0.534813
1 0.963531 0.514733
0 0 0.785687
0.0717327 0 0.792874
0.291768 0 0.776684
0.594064 0 0.739361
0.847837 0 0.717235
1 0 0.705623
1 0 0.694469
1 0 0.68423
1 0 0.674952
0 0.0921798 0.766751
0.0153353 0.0891737 0.774762
0.199298 0.0767681 0.773083
0.492378 0.0384985 0.745296
0.782986 0.004654 0.721828
1 0 0.7178
1 0 0.714382
1 0 0.710536
1 0 0.705806
0 0.21825 0.740826
0 0.215244 0.753628
0.131594 0.217884 0.771466
0.404288 0.193896 0.762051
0.72166 0.160403 0.742489
0.970596 0.146761 0.742153
1 0.134829 0.742931
1 0.120272 0.740475
1 0.104372 0.73611
0 0.370932 0.710414
0 0.37055 0.727031
0.0676127 0.381323 0.754971
0.303807 0.370947 0.761883
0.625895 0.33695 0.745174
0.90219 0.31487 0.740307
1 0.302647 0.745144
1 0.288212 0.747478
1 0.271397 0.747082
0 0.538109 0.695125
0 0.537301 0.710887
0.0141299 0.54696 0.737301
0.210925 0.546777 0.753979
0.515862 0.517906 0.742016
0.821988 0.488487 0.729534
1 0.475563 0.733471
1 0.459739 0.734417
1 0.439994 0.731289
0 0.703014 0.693477
0 0.701015 0.704616
0 0.70695 0.724163
0.142382 0.716243 0.747539
0.411994 0.695323 0.741192
0.729702 0.659434 0.720287
0.977813 0.639612 0.715877
1 0.619532 0.711528
1 0.594965 0.702983
0 0.859663 0.716823
0 0.856306 0.722896
0 0.857664 0.733944
0.103853 0.867216 0.753552
0.323598 0.854124 0.750866
0.631952 0.81413 0.721706
0.898253 0.782574 0.701442
1 0.759136 0.689723
1 0.731319 0.674067
0 1 0.75021
0 0.998489 0.74992
0 0.992508 0.752224
0.080354 0.995315 0.763302
0.255482 0.98735 0.763638
0.537087 0.947982 0.732662
0.825254 0.904784 0.697948
1 0.878233 0.680034
1 0.849531 0.660151
0 1 0.772274
0 1 0.764965
0 1 0.759731
0.0576181 1 0.760174
0.198062 1 0.764401
0.442496 1 0.7393
0.742199 1 0.699016
0.975555 0.988342 0.676188
1 0.96051 0.656611
0 0 0.881346
0.0649577 0 0.888991
0.279622 0 0.87483
0.581369 0 0.838437
0.839429 0 0.816159
1 0 0.805661
1 0 0.795621
1 0 0.786511
1 0 0.77821
0 0.0919661 0.86482
0.010071 0.0889754 0.873289
0.190127 0.0782635 0.873762
0.480537 0.041413 0.847883
0.775036 0.00724804 0.824582
1 0 0.821439
1 0 0.818967
1 0 0.815869
1 0 0.811734
0 0.219104 0.842573
0 0.216007 0.855772
0.12607 0.22002 0.875456
0.394278 0.197803 0.868284
0.712978 0.164263 0.84918
0.964248 0.150072 0.848783
1 0.138109 0.850019
1 0.123568 0.848112
1 0.107836 0.844434
0 0.373129 0.816098
0 0.372717 0.833219
0.0641642 0.383688 0.861921
0.294896 0.374746 0.870817
0.61561 0.340841 0.854765
0.895949 0.3178 0.849485
1 0.305715 0.855009
1 0.291295 0.857908
1 0.274372 0.857954
0 0.54081 0.803983
0 0.53959 0.819913
0.0114137 0.54873 0.846387
0.204028 0.549798 0.864897
0.505455 0.521828 0.854414
0.814511 0.491447 0.84155
1 0.478065 0.845624
1 0.461982 0.846891
1 0.44184 0.843976
0 0.705562 0.804837
0 0.703349 0.816373
0 0.708614 0.835859
0.137087 0.718349 0.860304
0.401297 0.698497 0.85565
0.719478 0.661936 0.83473
0.969696 0.640894 0.829725
1 0.620401 0.825605
1 0.595438 0.817288
0 0.862089 0.830823
0 0.858274 0.837064
0 0.8589 0.84802
0.0985733 0.867964 0.867765
0.312505 0.855787 0.866651
0.618906 0.815671 0.838026
0.888685 0.782559 0.816846
1 0.75874 0.805402
1 0.730663 0.790143
0 1 0.866346
0 0.999359 0.865995
0 0.992599 0.868132
0.0747997 0.994415 0.878859
0.245258 0.987106 0.880491
0.522774 0.948318 0.850721
0.813367 0.904067 0.81561
1 0.877012 0.797833
1 0.84828 0.778576
0 1 0.890196
0 1 0.882872
0 1 0.877577
0.05066 1 0.87776
0.188876 1 0.882887
0.427832 1 0.859663
0.728054 1 0.81976
0.964309 0.986755 0.796765
1 0.959121 0.778012
0 0 0.968353
0.0590524 0 0.976074
0.268452 0 0.963607
0.569375 0 0.927886
0.831891 0 0.905089
1 0 0.895354
1 0 0.886076
1 0 0.877714
1 0 0.869993
0 0.0926375 0.952544
0.00593576 0.0896468 0.961089
0.182254 0.0806592 0.963348
0.46978 0.0453193 0.939055
0.767941 0.0109407 0.915633
1 0 0.912932
1 0 0.911009
1 0 0.908293
1 0 0.904341
0 0.221027 0.932265
0 0.21796 0.945571
0.121874 0.223224 0.966598
0.385382 0.202808 0.961349
0.70518 0.169284 0.942351
0.959075 0.154437 0.941436
1 0.142443 0.942779
1 0.128038 0.941146
1 0.112474 0.937774
0 0.376516 0.907958
0 0.376074 0.925231
0.0619974 0.387182 0.954238
0.287358 0.379644 0.964721
0.606439 0.345968 0.949081
0.890883 0.321981 0.943053
1 0.310018 0.948882
1 0.295613 0.952026
1 0.278569 0.952163
0 0.544732 0.897231
0 0.543099 0.912978
0.0102083 0.551766 0.939193
0.198718 0.55404 0.959136
0.496437 0.527031 0.949859
0.808103 0.495766 0.936339
1 0.48188 0.940154
1 0.465537 0.941436
1 0.444999 0.938369
0 0.709468 0.899001
0 0.707057 0.910597
0 0.711711 0.929763
0.133364 0.721767 0.954833
0.392004 0.703029 0.951583
0.710399 0.665873 0.930388
0.963058 0.643534 0.924392
1 0.62269 0.920241
1 0.59733 0.911864
0 0.865934 0.926055
0 0.861677 0.932158
0 0.861585 0.942718
0.0948653 0.870115 0.962249
0.303105 0.858839 0.962386
0.607248 0.818723 0.934112
0.880552 0.784054 0.911757
1 0.759869 0.900328
1 0.731563 0.885222
0 1 0.962264
0 1 0.961578
0 0.994202 0.963302
0.0710765 0.99498 0.973358
0.236881 0.988342 0.976028
0.510155 0.950225 0.947326
0.802899 0.905028 0.911665
1 0.877455 0.893782
1 0.848707 0.874952
0 1 0.986664
0 1 0.97911
0 1 0.973556
0.045182 1 0.973327
0.181567 1 0.979049
0.414984 1 0.95758
0.71545 1 0.917952
0.95491 0.986938 0.89453
1 0.95993 0.87686
