shaders/LUTs/misc/custom_1.cube
TITLE "Generated by Resolve"
LUT_3D_SIZE 5
0 0 0
0.717494 0 0
1 0 0
1 0 0
1 0 0
0 0.425391 0
0.467277 0.339162 0
1 0 0
1 0 0
1 0 0
0 0.742901 0
0 0.685588 0
0.83125 0.631495 0
1 0.394873 0
1 0 0
0 1 0
0 0.946349 0
0.463081 0.944701 0
1 0.877272 0
1 0.723217 0
0 1 0
0 1 0
0 1 0
0.850294 1 0
1 1 0
0 0 0.356222
0.629953 0 0.241123
1 0 0
1 0 0
1 0 0
0 0.437186 0.352392
0.372244 0.327581 0.298466
0.966049 0 0
1 0 0
1 0 0
0 0.747112 0
0 0.662089 0
0.749706 0.629496 0.200565
1 0.428367 0
1 0 0
0 1 0
0 0.935317 0
0.344579 0.932052 0
1 0.877028 0
1 0.737392 0
0 1 0
0 1 0
0 1 0
0.774899 1 0
1 1 0
0 0 0.69659
0.534905 0 0.661173
1 0 0.499489
1 0 0
1 0 0
0 0.436271 0.698451
0.168154 0.277562 0.647196
0.877562 0 0.588022
1 0 0.293462
1 0 0
0 0.745449 0.628229
0 0.634409 0.575769
0.66688 0.611399 0.607446
1 0.435798 0.53933
1 0 0
0 1 0.465446
0 0.920974 0.375311
0 0.911742 0.537774
0.985 0.867185 0.578683
1 0.741268 0.427848
0 1 0
0 1 0
0 1 0
0.690532 1 0.456062
1 1 0.448737
0 0 0.991699
0.401862 0 0.967285
1 0 0.893492
1 0 0.741802
1 0 0.395483
0 0.419608 0.992645
0 0 0.940734
0.782513 0 0.908232
1 0 0.806424
1 0 0.570306
0 0.736522 0.9523
0 0.598108 0.900664
0.544564 0.579171 0.912306
1 0.413687 0.880919
1 0 0.775464
0 1 0.873198
0 0.90164 0.818311
0 0.88275 0.864424
0.908507 0.848219 0.871244
1 0.733883 0.842008
0 1 0.742672
0 1 0.67364
0 1 0.71928
0.578164 1 0.832273
1 1 0.855863
0 0 1
0 0 1
0.910796 0 1
1 0 1
1 0 0.967041
0 0.38558 1
0 0 1
0.661631 0 1
1 0 1
1 0 1
0 0.720226 1
0 0.54934 1
0.364569 0.522896 1
1 0.349981 1
1 0 1
0 0.998306 1
0 0.876814 1
0 0.839704 1
0.806958 0.819989 1
1 0.712673 1
0 1 1
0 1 1
0 1 1
0.396048 1 1
1 1 1
