shaders/LUTs/misc/custom_4_3_2.cube
TITLE "Generated by Resolve"
# Add the options shown below to your cube file depending on what you need for your LUT to work (especially colorspace and gamma correction).
# MAKE SURE TO ADD EXACTLY ONE "# " BEFORE ALL SETTINGS OR THIS FILE MAY NOT WORK PROPERLY.
#   output mapping - 0:none 1:divide by 16 2:reinhard 3:Hable 4:ACES/UE4 (default)
# The following setting has two hashtags and is therefore disabled
## viewing transform: 4
#   output mapping - 0:sRGB 1:ACEScg(raw) 2:ACES2065-1
# output colorspace: 1
# gamma correction: on
LUT_3D_SIZE 5
0.000640879 0.000518807 0.00120546
0.319905 0 0
0.68423 0 0
1 0 0
1 0 0
0 0.195254 0
0.222873 0.224445 0
0.5991 0.152941 0
0.957595 0 0
1 0 0
0 0.402808 0
0 0.499794 0
0.505852 0.485008 0
0.929 0.427588 0
1 0.325154 0
0 0.622812 0
0 0.81088 0
0.0319371 0.810864 0
0.818173 0.771344 0
1 0.724269 0
0 0.878904 0
0 1 0
0 1 0
0.524056 1 0
1 1 0
0 0 0.251774
0.304006 0 0.26685
0.660273 0 0.246509
1 0 0.206332
1 0 0.141726
0 0.1906 0.245029
0.214954 0.221057 0.228351
0.593256 0.150103 0.216922
0.954055 0 0.180896
1 0 0.112978
0 0.442802 0.0211032
0 0.517433 0
0.509224 0.490791 0.13283
0.939879 0.433494 0.0649271
1 0.329824 0
0 0.751644 0
0 0.838926 0
0.13048 0.825483 0
0.815564 0.769848 0
1 0.711879 0
0 1 0
0 1 0
0 1 0
0.533318 1 0
1 1 0
0 0 0.530999
0.269337 0 0.573922
0.641245 0 0.552407
0.994995 0 0.522744
1 0 0.491295
0 0.172137 0.530129
0.181216 0.21091 0.523766
0.580041 0.143755 0.507988
0.945052 0 0.490913
1 0 0.465766
0 0.396948 0.469993
0 0.489113 0.504707
0.496223 0.488426 0.492668
0.93077 0.429633 0.481315
1 0.325567 0.461326
0 0.652674 0.314778
0 0.852323 0.256962
0.205966 0.810056 0.327077
0.797833 0.756252 0.407218
1 0.696742 0.377417
0 0.958755 0
0 1 0
0 1 0
0.537987 1 0
1 1 0.188006
0 0 0.877226
0.15201 0 0.957961
0.602411 0 0.916503
0.972229 0 0.886534
1 0 0.854185
0 0.147616 0.867247
0 0.195056 0.877302
0.550042 0.128313 0.850263
0.927367 0 0.835569
1 0 0.817075
0 0.379095 0.814817
0 0.470756 0.902815
0.467994 0.47715 0.868864
0.91397 0.424277 0.852415
1 0.317693 0.837476
0 0.609277 0.763668
0 0.757534 0.869825
0.203769 0.76492 0.836561
0.77351 0.745968 0.794614
1 0.68603 0.766476
0 0.882567 0.612787
0 1 0.661295
0 1 0.557641
0.565713 1 0.621759
1 1 0.76408
0 0 1
0 0 1
0.519341 0 1
0.928069 0 1
1 0 1
0 0.0990768 1
0 0.160769 1
0.474525 0.0843671 1
0.889799 0 1
1 0 1
0 0.355993 1
0 0.451621 1
0.371252 0.460441 1
0.873014 0.412055 1
1 0.301534 1
0 0.59115 1
0 0.742748 1
0 0.745312 1
0.736553 0.728939 1
1 0.674128 1
0 0.837095 1
0 1 1
0 0.990784 1
0.562448 1 1
1 1 1
