shaders/LUTs/misc/default.cube
LUT_3D_SIZE 3
0.0 0.0 0.0
0.5 0.0 0.0
1.0 0.0 0.0
0.0 0.5 0.0
0.5 0.5 0.0
1.0 0.5 0.0
0.0 1.0 0.0
0.5 1.0 0.0
1.0 1.0 0.5
0.0 0.0 0.5
0.5 0.0 0.5
1.0 0.0 0.5
0.0 0.5 0.5
0.5 0.5 0.5
1.0 0.5 0.5
0.0 1.0 0.5
0.5 1.0 0.5
1.0 1.0 0.5
0.0 0.0 1.0
0.5 0.0 1.0
1.0 0.0 1.0
0.0 0.5 1.0
0.5 0.5 1.0
1.0 0.5 1.0
0.0 1.0 1.0
0.5 1.0 1.0
1.0 1.0 1.0