shaders/LUTs/misc/test.cube
# tonemap: NONE_TONEMAP
# input colorspace: ACESCG_COLORSPACE
# output colorspace: ACESCG_COLORSPACE
DOMAIN_MAX 10.0 10.0 10.0
TITLE "Generated by Resolve"
LUT_3D_SIZE 33
1 1 1
1 1 1
1 1 1
0.897231 1 1
0.57438 1 1
0.365347 1 1
0.263401 1 1
0.194171 1 1
0.140551 1 1
0.0961929 1 1
0.0562905 1 1
0.0195163 1 1
0 1 1
0 1 1
0 1 1
0 1 1
0 1 1
0 1 1
0 1 1
0 1 1
0 1 1
0 1 1
0 1 1
0 1 1
0 1 1
0 1 1
0 1 1
0 0.971572 1
0 0.906447 1
0 0.840055 0.970672
0 0.776898 0.908461
0 0.723033 0.855512
0 0.678508 0.811917
1 1 1
1 1 1
1 1 1
0.921279 1 1
0.611688 1 1
0.381643 1 1
0.272236 1 1
0.200855 1 1
0.146059 1 1
0.101045 1 1
0.0608377 1 1
0.023743 1 1
0 1 1
0 1 1
0 1 1
0 1 1
0 1 1
0 1 1
0 1 1
0 0.999191 1
0 0.938323 1
0 0.87219 1
0 0.804105 1
0 0.738018 1
0 0.681453 1
0 0.634592 1
0 0.594614 1
0 0.560006 1
0 0.526635 1
0 0.495857 0.985092
0 0.468879 0.95906
0 0.447501 0.938598
0 0.429511 0.921523
1 1 1
1 1 1
1 1 1
0.939696 1 1
0.641581 1 1
0.395514 1 1
0.280095 1 1
0.206516 1 1
0.150546 1 1
0.108568 1 1
0.0682536 1 1
0.030869 1 1
0 1 1
0 0.976516 1
0 0.922683 1
0 0.858549 1
0 0.793027 1
0 0.728359 1
0 0.669383 1
0 0.618173 1
0 0.578134 1
0 0.543252 1
0 0.509377 1
0 0.475837 1
0 0.446799 1
0 0.422049 1
0 0.400275 1
0 0.380743 1
0 0.361868 1
0 0.344259 1
0 0.328222 1
0 0.314626 1
0 0.302647 1
1 0.920134 1
1 0.932692 1
1 0.943236 1
0.955352 0.952255 1
0.671626 0.979248 1
0.41062 0.99942 1
0.289937 0.98291 1
0.213642 0.954391 1
0.150744 0.91603 1
0.0889754 0.862852 1
0.0239109 0.802762 1
0 0.738293 1
0 0.67451 1
0 0.616831 1
0 0.567803 1
0 0.530678 1
0 0.498817 1
0 0.467765 1
0 0.437247 1
0 0.411002 1
0 0.388891 1
0 0.369421 1
0 0.350134 1
0 0.331319 1
0 0.313283 1
0 0.29633 1
0 0.281025 1
0 0.266682 1
0 0.252796 1
0 0.239429 1
0 0.227451 1
0.000823987 0.216846 1
0.0209964 0.207431 1
1 0.653193 1
1 0.672419 1
1 0.685252 1
1 0.695918 1
0.743877 0.710994 1
0.441596 0.716823 1
0.279332 0.675303 1
0.164981 0.615747 1
0.0750591 0.558724 1
0.00753796 0.509834 1
0 0.472206 1
0 0.442817 1
0 0.414176 1
0 0.387732 1
0 0.364843 1
0 0.346197 1
0 0.330297 1
0 0.315175 1
0 0.299702 1
0 0.284276 1
0 0.269734 1
0 0.256291 1
0 0.242985 1
0 0.229374 1
0 0.215396 1
0 0.201968 1
0.0156558 0.189563 1
0.0448615 0.177783 1
0.073228 0.166567 1
0.100343 0.155932 1
0.126101 0.146059 1
0.150881 0.136919 1
0.173037 0.129366 1
1 0.425544 1
1 0.416617 1
1 0.393576 1
0.985138 0.366445 1
0.692622 0.355428 1
0.390219 0.365759 1
0.255299 0.350118 1
0.18352 0.328649 1
0.133455 0.304509 1
0.0978866 0.2804 1
0.0727855 0.259403 1
0.0565805 0.243961 1
0.0464027 0.230716 1
0.0396277 0.217548 1
0.0358129 0.204623 1
0.0361486 0.192615 1
0.0411231 0.181933 1
0.0499275 0.17174 1
0.0625772 0.160723 1
0.0771649 0.149767 1
0.094789 0.139101 1
0.11545 0.128801 1
0.138445 0.118669 1
0.163348 0.108675 1
0.18938 0.0985428 1
0.217807 0.0880293 1
0.24509 0.078645 1
0.272419 0.0700847 1
0.299001 0.062211 1
0.324071 0.0548867 1
0.347326 0.0482032 1
0.370443 0.0416266 1
0.389776 0.0366979 1
1 0.152575 1
1 0.126635 1
1 0.127138 1
0.863188 0.140795 1
0.623743 0.163287 1
0.339925 0.203067 1
0.220172 0.206134 1
0.16492 0.200504 1
0.133471 0.192157 1
0.114458 0.181384 1
0.102892 0.170306 1
0.0958267 0.160296 1
0.0935683 0.151308 1
0.0945602 0.142748 1
0.0986343 0.133669 1
0.106081 0.124407 1
0.117128 0.115129 1
0.132113 0.106157 1
0.150652 0.0968643 1
0.171893 0.0870832 1
0.195895 0.0767681 1
0.222889 0.066453 1
0.252567 0.0561685 1
0.284489 0.0458381 1
0.318013 0.0352941 1
0.352026 0.0247959 1
0.386358 0.0144961 1
0.420523 0.00463874 1
0.453986 0 1
0.486259 0 1
0.516976 0 1
0.545449 0 1
0.57116 0 1
1 0 1
1 0 1
1 0 1
0.80351 0.0294652 1
0.590616 0.0678416 1
0.313252 0.125246 1
0.200061 0.140459 1
0.15021 0.141558 1
0.123888 0.138445 1
0.110979 0.133135 1
0.104875 0.126421 1
0.102449 0.119677 1
0.103548 0.113329 1
0.108034 0.107012 1
0.115679 0.100526 1
0.126345 0.093431 1
0.140307 0.0859541 1
0.157763 0.078233 1
0.178622 0.0704509 1
0.202609 0.0622416 1
0.229358 0.0533761 1
0.25864 0.044007 1
0.290562 0.0343175 1
0.324712 0.024445 1
0.360433 0.0144808 1
0.397177 0.00436408 1
0.434287 0 1
0.471061 0 1
0.507195 0 1
0.542138 0 1
0.575235 0 1
0.606226 0 1
0.634897 0 1
1 0 1
1 0 1
0.980194 0 1
0.778256 0 1
0.578424 0.0173495 1
0.300008 0.082826 1
0.18558 0.104646 1
0.137591 0.109682 1
0.113863 0.109712 1
0.103655 0.10721 1
0.100649 0.103243 1
0.100877 0.0987869 1
0.104158 0.0941634 1
0.110826 0.0895094 1
0.120714 0.0846571 1
0.13373 0.0793164 1
0.149447 0.0733654 1
0.168383 0.0668345 1
0.190494 0.0598917 1
0.215747 0.0525368 1
0.24387 0.0446174 1
0.274601 0.0360418 1
0.307576 0.026978 1
0.342519 0.0175021 1
0.379034 0.0077821 1
0.416587 0 1
0.454582 0 1
0.492454 0 1
0.529549 0 1
0.56556 0 1
0.599924 0 1
0.632349 0 1
0.662654 0 1
1 0 1
1 0 1
0.96173 0 1
0.764614 0 1
0.573434 0 1
0.292729 0.0582132 1
0.17377 0.0852522 1
0.126726 0.0932021 1
0.104112 0.0953231 1
0.0951705 0.0947433 1
0.0941176 0.0927749 1
0.0963912 0.0901961 1
0.101411 0.0870527 1
0.1093 0.0835126 1
0.120317 0.0795911 1
0.134447 0.0752575 1
0.151522 0.0702983 1
0.171466 0.0646067 1
0.194202 0.0582742 1
0.220066 0.0513008 1
0.248707 0.0437171 1
0.279942 0.0355383 1
0.313451 0.0267796 1
0.348943 0.0175937 1
0.385992 0.00808728 1
0.424186 0 1
0.462959 0 1
0.501595 0 1
0.539498 0 1
0.576501 0 1
0.611872 0 1
0.645228 0 1
0.676356 0 1
1 0 1
1 0 1
0.951782 0 1
0.757946 0 1
0.573129 0 1
0.290486 0.0445869 1
0.166079 0.075639 1
0.11899 0.0862745 1
0.0969253 0.0903182 1
0.0886091 0.0910506 1
0.0882582 0.0901656 1
0.0915694 0.0887312 1
0.0976272 0.0867323 1
0.106355 0.0840314 1
0.117845 0.0807507 1
0.13228 0.0768444 1
0.149706 0.072343 1
0.170047 0.0670939 1
0.193271 0.0611124 1
0.219379 0.0544289 1
0.248386 0.0472267 1
0.279942 0.0394598 1
0.313878 0.0311589 1
0.349828 0.0223697 1
0.387396 0.0132296 1
0.426108 0.00387579 1
0.465415 0 1
0.504768 0 1
0.54342 0 1
0.580896 0 1
0.616861 0 1
0.65098 0 1
0.682902 0 1
1 0 1
1 0 1
0.947509 0 1
0.756191 0 1
0.574777 0 1
0.295155 0.0380102 1
0.162234 0.0727245 1
0.113527 0.0852369 1
0.0918135 0.0906691 1
0.0837568 0.0924849 1
0.0837262 0.0922866 1
0.0874037 0.0912795 1
0.0937667 0.0897688 1
0.1028 0.0875868 1
0.114611 0.0846723 1
0.12929 0.081117 1
0.146853 0.0770428 1
0.167483 0.0722667 1
0.191058 0.0667887 1
0.217426 0.0605783 1
0.246647 0.0537423 1
0.278538 0.0463417 1
0.312856 0.0384375 1
0.349233 0.0301213 1
0.387259 0.0214847 1
0.426276 0.0125429 1
0.465934 0.00354009 1
0.505776 0 1
0.545037 0 1
0.58323 0 1
0.619821 0 1
0.654688 0 1
0.687404 0 1
1 0 1
1 0 1
0.946822 0 1
0.756863 0 1
0.578515 0 1
0.302876 0.0361639 1
0.159609 0.0745556 1
0.108812 0.0882277 1
0.0865644 0.0943923 1
0.0783551 0.096849 1
0.0783856 0.0971237 1
0.0822919 0.0964828 1
0.0889754 0.0953384 1
0.0983444 0.0936446 1
0.110521 0.0912642 1
0.12549 0.0881666 1
0.143297 0.0843977 1
0.164218 0.0800641 1
0.187945 0.0750896 1
0.21471 0.069398 1
0.244221 0.0629892 1
0.276417 0.0560464 1
0.310948 0.0485084 1
0.347677 0.040589 1
0.386191 0.0324712 1
0.425742 0.0240024 1
0.465904 0.0153811 1
0.506127 0.00686656 1
0.546014 0 1
0.585046 0 1
0.622446 0 1
0.658015 0 1
0.691234 0 1
1 0 1
1 0 1
0.947265 0 1
0.758083 0 1
0.581216 0 1
0.310384 0.037232 1
0.157122 0.0788586 1
0.103166 0.0938125 1
0.0800946 0.10071 1
0.0718395 0.103761 1
0.0721599 0.104601 1
0.0764324 0.104402 1
0.0833143 0.103609 1
0.0930037 0.102358 1
0.105455 0.100465 1
0.12079 0.0979019 1
0.138979 0.0945907 1
0.160143 0.0906691 1
0.184192 0.0860456 1
0.211246 0.0807965 1
0.241169 0.0749218 1
0.273732 0.068513 1
0.308568 0.0614023 1
0.345586 0.0538338 1
0.384436 0.0460822 1
0.424598 0.0380865 1
0.465431 0.0299535 1
0.506233 0.0218509 1
0.5467 0.0140993 1
0.586069 0.00662242 1
0.624079 0 1
0.660365 0 1
0.694408 0 1
1 0 1
1 0 1
0.946792 0 1
0.75816 0 1
0.581048 0 1
0.318257 0.0403906 1
0.154131 0.0856489 1
0.0966354 0.102159 1
0.0728618 0.109697 1
0.0642557 0.113329 1
0.064744 0.114702 1
0.0695201 0.115038 1
0.0767834 0.114717 1
0.0868238 0.113832 1
0.0995956 0.112306 1
0.115084 0.110262 1
0.133654 0.107515 1
0.155215 0.104112 1
0.179568 0.0999008 1
0.206867 0.0950332 1
0.237034 0.089601 1
0.270039 0.0837415 1
0.305379 0.0771496 1
0.342794 0.0700084 1
0.381949 0.0625162 1
0.422553 0.0550088 1
0.463813 0.0473335 1
0.505211 0.0397498 1
0.546365 0.0324712 1
0.586358 0.02533 1
0.624949 0.0187228 1
0.661967 0.0129244 1
0.696895 0.00772107 1
1 0 1
1 0 1
0.944808 0 1
0.75697 0 1
0.580758 0 1
0.326543 0.0458534 1
0.150576 0.0948653 1
0.0891127 0.11313 1
0.0645762 0.121538 1
0.0557412 0.125719 1
0.0563363 0.127504 1
0.0614023 0.128313 1
0.0691844 0.128542 1
0.0796368 0.128206 1
0.0927138 0.127092 1
0.108644 0.125353 1
0.127535 0.123033 1
0.149279 0.120302 1
0.174044 0.11664 1
0.201633 0.11223 1
0.232074 0.107164 1
0.265431 0.101701 1
0.301167 0.095613 1
0.338994 0.0890822 1
0.378607 0.0820783 1
0.419638 0.0749523 1
0.461357 0.0675975 1
0.503365 0.0603952 1
0.545205 0.0536049 1
0.585855 0.0469978 1
0.625299 0.0407111 1
0.662898 0.0350347 1
0.698543 0.0303044 1
1 0 1
1 0 1
0.941466 0 1
0.75433 0 1
0.579065 0 1
0.33373 0.0541543 1
0.14583 0.106844 1
0.0806287 0.126665 1
0.0550393 0.136095 1
0.0461433 0.140948 1
0.0468452 0.143236 1
0.0523537 0.144366 1
0.060502 0.145006 1
0.0713664 0.145296 1
0.0848554 0.144747 1
0.101137 0.143465 1
0.120287 0.141543 1
0.142596 0.139147 1
0.167727 0.136019 1
0.195575 0.132265 1
0.226307 0.127733 1
0.259953 0.122683 1
0.295995 0.116976 1
0.334295 0.110872 1
0.374441 0.104448 1
0.415915 0.0978866 1
0.458122 0.0909438 1
0.500771 0.0840009 1
0.543328 0.0775464 1
0.584741 0.0713359 1
0.624796 0.0655985 1
0.66302 0.0604868 1
0.69929 0.0560159 1
1 0 1
1 0 1
0.937133 0 1
0.750439 0 1
0.574899 0 1
0.339452 0.0652934 1
0.141161 0.121431 1
0.0714733 0.142931 1
0.0445563 0.153262 1
0.0353552 0.158862 1
0.0363012 0.161822 1
0.042237 0.163424 1
0.0507057 0.164446 1
0.0620737 0.165087 1
0.0760204 0.165072 1
0.0926223 0.164446 1
0.112169 0.163027 1
0.134752 0.161044 1
0.160189 0.158312 1
0.188617 0.154971 1
0.219806 0.151049 1
0.25388 0.146593 1
0.290272 0.141314 1
0.328908 0.135576 1
0.369574 0.129656 1
0.411612 0.123476 1
0.454353 0.117113 1
0.497368 0.110689 1
0.540322 0.104616 1
0.5823 0.0987106 1
0.623041 0.0933242 1
0.662303 0.088777 1
0.699275 0.0846723 1
1 0 1
1 0 1
0.931502 0 1
0.745602 0 1
0.570748 0.0145876 1
0.345266 0.078706 1
0.135729 0.138659 1
0.0610819 0.162219 1
0.0333257 0.173266 1
0.0236667 0.179477 1
0.0245975 0.183078 1
0.0310674 0.18529 1
0.0400397 0.186862 1
0.0517433 0.187915 1
0.0660563 0.188266 1
0.0832532 0.188052 1
0.10309 0.187304 1
0.126085 0.185946 1
0.151827 0.183642 1
0.180499 0.180697 1
0.212177 0.177218 1
0.246708 0.173281 1
0.283421 0.168658 1
0.322469 0.163394 1
0.363424 0.157794 1
0.405921 0.152041 1
0.449271 0.14609 1
0.492988 0.140169 1
0.536492 0.134676 1
0.579065 0.129122 1
0.620432 0.124025 1
0.660609 0.119753 1
0.698344 0.116014 1
1 0 1
1 0 1
0.924666 0 1
0.739605 0 1
0.565698 0.0329442 1
0.350088 0.0948959 1
0.128511 0.158694 1
0.0502785 0.184146 1
0.0212558 0.196155 1
0.0111696 0.203037 1
0.0122072 0.207065 1
0.0188296 0.209842 1
0.0285039 0.212146 1
0.0406043 0.213657 1
0.0552682 0.214466 1
0.072755 0.214649 1
0.0932937 0.214374 1
0.116579 0.213504 1
0.142748 0.211841 1
0.171664 0.20943 1
0.203571 0.206317 1
0.238437 0.202823 1
0.275731 0.198627 1
0.315129 0.194018 1
0.356725 0.18912 1
0.399481 0.183627 1
0.443229 0.178012 1
0.487617 0.172595 1
0.532021 0.167315 1
0.57525 0.16231 1
0.617182 0.157641 1
0.657771 0.153735 1
0.696132 0.15024 1
1 0 1
1 0 1
0.917006 0 1
0.732631 0.0027924 1
0.558618 0.0543221 1
0.351751 0.114626 1
0.121782 0.181201 1
0.0386206 0.20856 1
0.00820935 0.221653 1
0 0.229374 1
0 0.234028 1
0.00614939 0.23714 1
0.0159762 0.239994 1
0.0285496 0.242039 1
0.0438087 0.243458 1
0.0616465 0.244175 1
0.0824903 0.244327 1
0.106203 0.243809 1
0.132738 0.242664 1
0.162188 0.240848 1
0.194766 0.238514 1
0.22977 0.235233 1
0.267338 0.231418 1
0.307301 0.227192 1
0.34931 0.222843 1
0.392538 0.217945 1
0.43679 0.212757 1
0.481605 0.207691 1
0.526253 0.202777 1
0.570169 0.198108 1
0.612894 0.193957 1
0.654078 0.190509 1
0.693111 0.187335 1
1 0 1
1 0 1
0.909163 0 1
0.725155 0.0258946 1
0.55198 0.0778363 1
0.354269 0.136538 1
0.114748 0.206668 1
0.0264897 0.235752 1
0 0.249683 1
0 0.258167 1
0 0.263584 1
0 0.267399 1
0.00328069 0.270527 1
0.0159304 0.27306 1
0.0315709 0.274983 1
0.0500038 0.276295 1
0.0713054 0.27715 1
0.0952621 0.276997 1
0.122148 0.276188 1
0.151995 0.274922 1
0.184802 0.273121 1
0.220264 0.270436 1
0.258213 0.267094 1
0.298497 0.263279 1
0.340902 0.25922 1
0.384573 0.254765 1
0.429252 0.250156 1
0.474784 0.245701 1
0.519829 0.241016 1
0.564233 0.236606 1
0.607828 0.232959 1
0.649744 0.229557 1
0.689418 0.226856 1
1 0 1
1 0 1
0.900999 0 1
0.717739 0.0515755 1
0.542931 0.10454 1
0.355779 0.161196 1
0.106493 0.234546 1
0.0146181 0.265415 1
0 0.280324 1
0 0.289494 1
0 0.295567 1
0 0.300099 1
0 0.303731 1
0.00347906 0.306676 1
0.0191348 0.309087 1
0.038117 0.311086 1
0.0597238 0.312245 1
0.0841688 0.312703 1
0.111299 0.312444 1
0.141543 0.311604 1
0.174487 0.31014 1
0.210208 0.307988 1
0.248585 0.305196 1
0.289509 0.302129 1
0.332052 0.298253 1
0.37612 0.294087 1
0.421424 0.290089 1
0.467124 0.285863 1
0.512871 0.281621 1
0.558053 0.277516 1
0.602167 0.274159 1
0.644419 0.271 1
0.684718 0.268528 1
1 0 1
1 0 1
0.89305 0.0235142 1
0.710811 0.07953 1
0.536629 0.133288 1
0.354788 0.188861 1
0.0998398 0.264286 1
0.00276188 0.297261 1
0 0.313283 1
0 0.323278 1
0 0.330022 1
0 0.334936 1
0 0.339117 1
0 0.342687 1
0.007187 0.345602 1
0.0262303 0.348104 1
0.0480507 0.34966 1
0.0728008 0.350607 1
0.100511 0.350927 1
0.131273 0.350729 1
0.164538 0.349523 1
0.200275 0.347784 1
0.239124 0.345693 1
0.280156 0.34284 1
0.323171 0.339483 1
0.367712 0.335698 1
0.41355 0.332006 1
0.459434 0.328054 1
0.505501 0.324163 1
0.551293 0.320775 1
0.595773 0.31754 1
0.63856 0.314641 1
0.679408 0.312322 1
1 0 1
1 0 1
0.886061 0.0530251 1
0.704341 0.109499 1
0.530892 0.163775 1
0.355367 0.218524 1
0.0948196 0.296086 1
0 0.331258 1
0 0.34818 1
0 0.359182 1
0 0.366644 1
0 0.372 1
0 0.376577 1
0 0.380621 1
0 0.38436 1
0.0150759 0.387228 1
0.0370336 0.389273 1
0.0619516 0.3906 1
0.0901045 0.391592 1
0.120912 0.391653 1
0.154543 0.391012 1
0.190814 0.389639 1
0.229725 0.388022 1
0.270909 0.385458 1
0.314168 0.382483 1
0.359243 0.3794 1
0.405264 0.375937 1
0.451713 0.372198 1
0.497887 0.368627 1
0.544137 0.365545 1
0.589014 0.362509 1
0.63238 0.35993 1
0.674357 0.358175 1
1 0 1
1 0.022797 1
0.880461 0.0843671 1
0.69929 0.14136 1
0.526436 0.196002 1
0.355825 0.250172 1
0.0915541 0.329595 1
0 0.367163 1
0 0.385046 1
0 0.396719 1
0 0.404868 1
0 0.41091 1
0 0.416007 1
0 0.420615 1
0 0.424613 1
0.00474556 0.427909 1
0.026978 0.430594 1
0.0522621 0.432593 1
0.0803693 0.433875 1
0.111269 0.434272 1
0.145068 0.434028 1
0.181964 0.433478 1
0.220874 0.431998 1
0.262196 0.429831 1
0.305577 0.427146 1
0.350958 0.42446 1
0.397162 0.421225 1
0.444007 0.417868 1
0.490898 0.414816 1
0.537255 0.411719 1
0.582605 0.408774 1
0.626444 0.4065 1
0.668482 0.404868 1
1 0 1
1 0.0548409 1
0.876646 0.117082 1
0.696193 0.174838 1
0.523873 0.23003 1
0.356954 0.283711 1
0.0909438 0.364218 1
0 0.404623 1
0 0.423804 1
0 0.435889 1
0 0.444526 1
0 0.451133 1
0 0.457023 1
0 0.462165 1
0 0.466468 1
0 0.4701 1
0.0181888 0.473335 1
0.0438239 0.475883 1
0.0720989 0.47747 1
0.103151 0.478279 1
0.136904 0.478386 1
0.173785 0.478187 1
0.212955 0.477043 1
0.254353 0.475364 1
0.298283 0.473381 1
0.343526 0.470619 1
0.38999 0.467552 1
0.437232 0.464485 1
0.484535 0.461646 1
0.530861 0.458778 1
0.576364 0.456077 1
0.620706 0.454154 1
0.662821 0.452384 1
1 0.0112459 1
1 0.0883345 1
0.875303 0.151095 1
0.695354 0.2094 1
0.523659 0.265309 1
0.358465 0.319249 1
0.0948959 0.399817 1
0 0.442985 1
0 0.463325 1
