shaders/LUTs/misc/test.cube
# tonemap: NONE_TONEMAP
# input colorspace: ACESCG_COLORSPACE
# output colorspace: ACESCG_COLORSPACE
DOMAIN_MAX 10.0 10.0 10.0
TITLE "Generated by Resolve"
LUT_3D_SIZE 5
1 1 1
0.140551 1 1
0 1 1
0 1 1
0 0.678508 0.811917
1 0 1
0.113863 0.109712 1
0.149447 0.0733654 1
0.379034 0.0077821 1
0.662654 0 1
1 0 1
0.0550393 0.136095 1
0.120287 0.141543 1
0.374441 0.104448 1
0.69929 0.0560159 1
1 0 1
0 0.34818 1
0.0370336 0.389273 1
0.314168 0.382483 1
0.674357 0.358175 1
1 0.18851 1
0 0.669886 1
0.0119631 0.738979 1
0.287312 0.748791 1
0.650095 0.729137 1
1 1 0.179629
0.100465 1 0.0991226
0 1 0
0 1 0
0 0.711879 0
1 0 0
0.239521 0.234592 0.230289
0.286595 0.216266 0.209094
0.521569 0.160174 0.150515
0.813336 0.0958419 0.0845655
1 0 0
0.21825 0.291707 0.201724
0.287221 0.307805 0.231067
0.546685 0.27982 0.216678
0.880446 0.239551 0.191211
1 0.0807507 0
0.147982 0.527398 0.124147
0.231785 0.57879 0.201129
0.512596 0.580407 0.229038
0.879133 0.561929 0.23772
1 0.374304 0
0.149935 0.867948 0.118486
0.221561 0.943877 0.222644
0.495857 0.95758 0.265583
0.859617 0.939361 0.280171
1 1 0.242206
0 1 0.151019
0 1 0
0 0.876539 0
0 0.657572 0
1 0 0.0729534
0.223758 0.218341 0.382681
0.273503 0.207965 0.354147
0.509651 0.156405 0.285328
0.805341 0.0958114 0.206867
1 0 0
0.223621 0.290837 0.344564
0.293004 0.312856 0.362905
0.554238 0.290257 0.336706
0.892561 0.254185 0.297704
1 0.0843977 0
0.172473 0.541085 0.252766
0.254963 0.598062 0.315724
0.537713 0.60444 0.327855
0.90779 0.589227 0.318746
1 0.391531 0
0.186389 0.891402 0.219699
0.251652 0.97113 0.303609
0.523796 0.986282 0.322393
0.888182 0.968124 0.307851
1 1 0.540337
0 1 0.451164
0 1 0.0412146
0 0.758862 0
0 0.601816 0
1 0 0.479347
0.190051 0.184573 0.800458
0.240452 0.179446 0.772061
0.476753 0.131655 0.700801
0.775601 0.0742504 0.618128
1 0 0.369848
0.20795 0.268696 0.767971
0.276219 0.295583 0.784268
0.53901 0.277531 0.755642
0.881483 0.245075 0.712444
1 0.0664073 0.216144
0.172686 0.530999 0.678355
0.254231 0.593118 0.738186
0.536507 0.602838 0.745205
0.908309 0.589181 0.728923
1 0.383902 0.137682
0.19588 0.888884 0.63711
0.254002 0.970611 0.713268
0.522927 0.985641 0.722454
0.885405 0.965896 0.69691
1 1 0.784634
0 1 0.703197
0 0.938003 0.214389
0 0.682078 0
0 0.561013 0
1 0 0.839033
0.162264 0.156603 1
0.211521 0.154925 1
0.447395 0.110277 1
0.748837 0.0553597 1
1 0 0.751904
0.195193 0.249882 1
0.262547 0.281285 1
0.525261 0.266651 1
0.870787 0.236805 1
1 0.0509804 0.615183
0.175189 0.522637 1
0.253361 0.588663 1
0.535103 0.600336 1
0.907469 0.587259 1
1 0.37705 0.548898
0.204105 0.884581 1
0.253239 0.967193 1
0.517601 0.980819 1
0.878325 0.958892 1
