shaders/LUTs/misc/test.cube
# tonemap: NONE_TONEMAP
# input colorspace: ACESCG_COLORSPACE
# output colorspace: ACESCG_COLORSPACE
DOMAIN_MAX 10.0 10.0 10.0
TITLE "Generated by Resolve"
LUT_3D_SIZE 9
1 1 1
0.57438 1 1
0.140551 1 1
0 1 1
0 1 1
0 1 1
0 1 1
0 0.906447 1
0 0.678508 0.811917
1 0.653193 1
0.743877 0.710994 1
0.0750591 0.558724 1
0 0.414176 1
0 0.330297 1
0 0.269734 1
0 0.215396 1
0.073228 0.166567 1
0.173037 0.129366 1
1 0 1
0.578424 0.0173495 1
0.113863 0.109712 1
0.104158 0.0941634 1
0.149447 0.0733654 1
0.24387 0.0446174 1
0.379034 0.0077821 1
0.529549 0 1
0.662654 0 1
1 0 1
0.578515 0 1
0.0865644 0.0943923 1
0.0889754 0.0953384 1
0.143297 0.0843977 1
0.244221 0.0629892 1
0.386191 0.0324712 1
0.546014 0 1
0.691234 0 1
1 0 1
0.579065 0 1
0.0550393 0.136095 1
0.060502 0.145006 1
0.120287 0.141543 1
0.226307 0.127733 1
0.374441 0.104448 1
0.543328 0.0775464 1
0.69929 0.0560159 1
1 0 1
0.558618 0.0543221 1
0.00820935 0.221653 1
0.0159762 0.239994 1
0.0824903 0.244327 1
0.194766 0.238514 1
0.34931 0.222843 1
0.526253 0.202777 1
0.693111 0.187335 1
1 0 1
0.530892 0.163775 1
0 0.34818 1
0 0.376577 1
0.0370336 0.389273 1
0.154543 0.391012 1
0.314168 0.382483 1
0.497887 0.368627 1
0.674357 0.358175 1
1 0.0450446 1
0.526345 0.301686 1
0 0.503731 1
0 0.541817 1
0.00675975 0.561669 1
0.125856 0.569757 1
0.287114 0.566613 1
0.473884 0.556558 1
0.653849 0.547967 1
1 0.18851 1
0.564965 0.453208 1
0 0.669886 1
0 0.715206 1
0.0119631 0.738979 1
0.12932 0.749981 1
0.287312 0.748791 1
0.471275 0.73901 1
0.650095 0.729137 1
1 1 0.443275
0.607462 1 0.511223
0.152667 1 0.453315
0 1 0.335363
0 1 0.21474
0 1 0.0890822
0 1 0
0 0.869856 0
0 0.708232 0
1 0.684474 0.616342
0.714794 0.686885 0.623621
0.0539254 0.565438 0.513649
0 0.463508 0.425757
0 0.404929 0.377661
0 0.354757 0.335531
0.0284276 0.304891 0.291554
0.146609 0.259785 0.250843
0.250568 0.226352 0.220539
1 0 0.362097
0.677592 0.0950027 0.622538
0.201495 0.19678 0.780789
0.193576 0.185321 0.81146
0.240024 0.166979 0.827039
0.335012 0.140215 0.831739
0.470329 0.104524 0.827085
0.621744 0.0663462 0.81825
0.756298 0.0345006 0.812924
1 0 0.377111
0.68658 0.0531014 0.659449
0.183703 0.189441 0.838376
0.185824 0.191943 0.878767
0.240146 0.182208 0.906645
0.341299 0.162127 0.918715
0.483421 0.132723 0.924193
0.644419 0.100206 0.925719
0.790784 0.0733043 0.932204
1 0 0.396155
0.689952 0.0805676 0.678233
0.157519 0.234455 0.87541
0.162509 0.245624 0.924025
0.222599 0.243503 0.961288
0.328817 0.230808 0.986725
0.477226 0.20885 1
0.64683 0.183215 1
0.804364 0.162478 1
1 0 0.380499
0.675792 0.152392 0.674418
0.116747 0.324071 0.890211
0.123445 0.344427 0.954299
0.190097 0.350256 1
0.302358 0.345571 1
0.457176 0.33135 1
0.635096 0.312581 1
0.803677 0.297673 1
1 0.0186007 0.355871
0.652918 0.266407 0.662852
0.0701457 0.455207 0.900023
0.0774395 0.485084 0.975601
0.149645 0.498955 1
0.266697 0.502037 1
0.426917 0.494774 1
0.611429 0.482002 1
0.788281 0.471672 1
1 0.150652 0.356802
0.652354 0.408774 0.673335
0.0428016 0.614267 0.927001
0.0475471 0.653864 1
0.122423 0.674617 1
0.241215 0.683574 1
0.402075 0.681056 1
0.588586 0.671305 1
0.769543 0.662974 1
1 0.297597 0.402441
0.694087 0.5635 0.725933
0.0578927 0.782635 0.992218
0.0545968 0.829221 1
0.128618 0.85333 1
0.244678 0.864546 1
0.401511 0.86331 1
0.584848 0.853284 1
0.763546 0.842893 1
1 1 0.179629
0.568521 1 0.202197
0.100465 1 0.0991226
0 1 0
0 1 0
0 1 0
0 1 0
0 0.837354 0
0 0.711879 0
1 0.646464 0.24567
0.62826 0.6 0.122423
0.0186618 0.550988 0.0133822
0 0.480537 0
0 0.435142 0
0 0.393973 0
0.0581369 0.351431 0
0.182162 0.31136 0
0.290044 0.281773 0
1 0 0
0.719783 0.12105 0.117784
0.239521 0.234592 0.230289
0.236545 0.229755 0.224201
0.286595 0.216266 0.209094
0.384024 0.192798 0.184192
0.521569 0.160174 0.150515
0.675959 0.124895 0.114336
0.813336 0.0958419 0.0845655
1 0 0
0.742657 0.0969558 0.0775006
0.235279 0.239109 0.222553
0.239231 0.245182 0.231556
0.296178 0.239017 0.228733
0.399451 0.222141 0.215534
0.543923 0.195804 0.193194
0.707713 0.166308 0.167727
0.857755 0.142489 0.147845
1 0 0
0.755779 0.132082 0.0354772
0.21825 0.291707 0.201724
0.224552 0.306355 0.222934
0.287221 0.307805 0.231067
0.395926 0.298634 0.228809
0.546685 0.27982 0.216678
0.718914 0.257145 0.200946
0.880446 0.239551 0.191211
1 0 0
0.747967 0.212177 0
0.186404 0.38883 0.16614
0.1944 0.412863 0.200305
0.263661 0.422354 0.219394
0.378271 0.421195 0.228168
0.535576 0.410147 0.227771
0.716152 0.394232 0.222812
0.888014 0.382162 0.221988
1 0.0807507 0
0.735622 0.333089 0
0.147982 0.527398 0.124147
0.156832 0.561593 0.170672
0.231785 0.57879 0.201129
0.350958 0.584863 0.22031
0.512596 0.580407 0.229038
0.699825 0.569879 0.231937
0.879133 0.561929 0.23772
1 0.220356 0
0.742077 0.482704 0
0.128313 0.694072 0.101228
0.134005 0.73724 0.158328
0.210895 0.760784 0.195636
0.331197 0.772366 0.220752
0.493858 0.772152 0.235126
0.682002 0.764401 0.242374
0.864118 0.757382 0.251591
1 0.374304 0
0.789807 0.643824 0
0.149935 0.867948 0.118486
0.145815 0.917693 0.182055
0.221561 0.943877 0.222644
0.338048 0.957336 0.249928
0.495857 0.95758 0.265583
0.679774 0.948867 0.27335
0.859617 0.939361 0.280171
1 1 0.166949
0.509438 1 0.184024
0.0270695 1 0.0814221
0 1 0
0 1 0
0 1 0
0 0.955962 0
0 0.787625 0
0 0.683162 0
1 0.570291 0.201755
0.536431 0.51043 0.0616465
0 0.509712 0.00148013
0 0.461997 0
0 0.425315 0
0 0.388006 0
0.0398871 0.348913 0
0.1673 0.311955 0
0.278416 0.283787 0
1 0 0
0.720775 0.109651 0.150149
0.234333 0.22916 0.264286
0.232151 0.226886 0.256672
0.283101 0.215213 0.239734
0.380804 0.193011 0.212253
0.518944 0.161501 0.175738
0.673854 0.127169 0.136095
0.812589 0.0991379 0.102159
1 0 0
0.751324 0.0930648 0.11104
0.236622 0.23859 0.255375
0.24036 0.246098 0.261814
0.29749 0.241077 0.255863
0.401099 0.225544 0.239414
0.546258 0.200687 0.213581
0.710948 0.172183 0.184161
0.862577 0.149126 0.160342
1 0 0
0.768627 0.131334 0.0659037
0.224262 0.294575 0.230945
0.230274 0.310872 0.248997
0.2934 0.313573 0.253254
0.402441 0.305913 0.247166
0.55407 0.28864 0.231754
0.727382 0.267155 0.211887
0.889967 0.250416 0.196628
1 0 0
0.765408 0.215183 0.00575265
0.197238 0.395254 0.1906
0.205035 0.421195 0.221271
0.274723 0.432044 0.236484
0.389944 0.43238 0.241047
0.547845 0.422705 0.235767
0.729519 0.407935 0.225025
0.902754 0.397269 0.218387
1 0.085832 0
0.757382 0.339849 0
0.163912 0.537789 0.143694
0.172 0.573693 0.186053
0.247272 0.592401 0.211002
0.36733 0.599954 0.224796
0.529641 0.59675 0.227543
0.717083 0.58732 0.22417
0.897932 0.580163 0.223285
1 0.22948 0
0.767636 0.493446 0
0.148196 0.707851 0.112963
0.151934 0.752514 0.163745
0.22948 0.777188 0.194903
0.349935 0.789822 0.213733
0.512779 0.79089 0.220981
0.70161 0.783886 0.220447
0.884901 0.777325 0.219959
1 0.386633 0
0.817823 0.657389 0
0.172488 0.88394 0.118883
0.165713 0.934981 0.175692
0.241154 0.961883 0.208515
0.357321 0.975998 0.227375
0.514748 0.977005 0.233036
0.69929 0.968978 0.229953
0.87985 0.959594 0.225254
1 1 0.242206
0.447974 1 0.252964
0 1 0.151019
0 1 0
0 1 0
0 1 0
0 0.876539 0
0 0.739971 0
0 0.657572 0
1 0.466606 0.222354
0.469459 0.448112 0.120226
0 0.475608 0.0868544
0 0.439811 0.00259403
0 0.410208 0
0 0.37763 0
0.0186465 0.341146 0
0.146792 0.306447 0
0.260044 0.279896 0
1 0 0.0729534
0.71635 0.0925917 0.266255
0.223758 0.218341 0.382681
0.222263 0.218479 0.373571
0.273503 0.207965 0.354147
0.371237 0.186709 0.324147
0.509651 0.156405 0.285328
0.665415 0.123186 0.243458
0.805341 0.0958114 0.206867
1 0 0.00749218
0.753094 0.082887 0.228138
0.231571 0.231693 0.371832
0.235203 0.240681 0.375952
0.292729 0.236881 0.367727
0.396323 0.222431 0.349081
0.541848 0.198688 0.32108
0.707576 0.17142 0.289586
0.860609 0.149187 0.263325
1 0 0
0.773892 0.124453 0.180255
0.223621 0.290837 0.344564
0.229221 0.308858 0.360616
0.293004 0.312856 0.362905
0.402426 0.306279 0.354574
0.554238 0.290257 0.336706
0.728847 0.269978 0.315038
0.892561 0.254185 0.297704
1 0 0
0.775433 0.211383 0.117739
0.201495 0.394903 0.302205
0.20853 0.422766 0.330816
0.278859 0.434852 0.343877
0.394278 0.436286 0.346273
0.55256 0.427832 0.338857
0.735195 0.414206 0.326375
0.909453 0.403967 0.316991
1 0.0843977 0
0.771557 0.339956 0.0485084
0.172473 0.541085 0.252766
0.179553 0.578286 0.29308
0.254963 0.598062 0.315724
0.375006 0.606622 0.327138
0.537713 0.60444 0.327855
0.725917 0.596078 0.322362
0.90779 0.589227 0.318746
1 0.231769 0
0.785245 0.496986 0
0.160082 0.71368 0.218509
0.162387 0.760082 0.267536
0.239719 0.78555 0.295811
0.360174 0.798825 0.312383
0.522393 0.800061 0.31667
0.710811 0.793347 0.312993
0.895064 0.786999 0.310262
1 0.391531 0
0.837385 0.663081 0
0.186389 0.891402 0.219699
0.177035 0.943786 0.274311
0.251652 0.97113 0.303609
0.367178 0.985245 0.319661
0.523796 0.986282 0.322393
0.707408 0.977874 0.315694
0.888182 0.968124 0.307851
1 1 0.388617
0.382696 1 0.394507
0 1 0.294697
0 1 0.116472
0 1 0
0 0.996658 0
0 0.815183 0
0 0.698009 0
0 0.628885 0
1 0.353536 0.314214
0.409186 0.388846 0.263844
0 0.444465 0.257969
0 0.416709 0.18175
0 0.390707 0.114336
0 0.361959 0.0454871
0 0.328649 0
0.122332 0.295232 0
0.2383 0.269001 0
1 0 0.265705
0.706401 0.0711376 0.459983
0.207538 0.201999 0.578424
0.206714 0.204257 0.568597
0.258183 0.194903 0.547143
0.355871 0.174685 0.515602
0.494469 0.145235 0.47483
0.650813 0.112978 0.430747
0.792126 0.0866102 0.39202
1 0 0.205035
0.748745 0.0671855 0.423468
0.220508 0.218982 0.566751
0.223789 0.229084 0.569268
0.281666 0.22649 0.559319
0.385657 0.213321 0.538964
0.531472 0.190677 0.508934
0.698283 0.164233 0.475517
0.852506 0.14313 0.447639
1 0 0.143465
0.773327 0.111803 0.374121
0.217121 0.281102 0.538003
0.221866 0.300389 0.552224
0.28603 0.30576 0.552499
0.396048 0.30045 0.542535
0.548394 0.285542 0.523003
0.723613 0.266392 0.499428
0.889036 0.251652 0.479881
1 0 0.0654612
0.779187 0.201953 0.309773
0.199466 0.388434 0.493919
0.205768 0.417868 0.520943
0.276478 0.431403 0.532204
0.392432 0.434058 0.533013
0.550958 0.426596 0.523217
0.734081 0.413977 0.508614
0.909941 0.404517 0.497368
1 0.0767681 0
0.779385 0.333791 0.2392
0.174166 0.537591 0.442466
0.180835 0.576669 0.481468
0.256733 0.59765 0.501793
0.376532 0.607217 0.511086
0.539376 0.605722 0.509697
0.727687 0.597757 0.501534
0.910536 0.591836 0.495155
1 0.227573 0
0.795605 0.493736 0.186099
0.165515 0.713314 0.405035
0.166155 0.761059 0.452552
0.243458 0.787213 0.478309
0.363424 0.801114 0.492088
0.525521 0.802762 0.493614
0.714 0.796139 0.487098
0.897932 0.789563 0.480934
1 0.389899 0
0.849515 0.661753 0.172641
0.193256 0.892439 0.401984
0.18172 0.945602 0.454063
0.255344 0.973373 0.480003
0.370062 0.987686 0.492714
0.525902 0.98854 0.492409
0.709178 0.979919 0.482094
0.889418 0.969802 0.470802
1 1 0.540337
0.317952 1 0.545754
0 1 0.451164
0 1 0.274525
0 1 0.0412146
0 0.902495 0
0 0.758862 0
0 0.66424 0
0 0.601816 0
1 0.252125 0.429618
0.355398 0.336248 0.432792
0 0.413947 0.451911
0 0.393835 0.38616
0 0.371832 0.324163
0 0.345144 0.259236
0 0.314092 0.189715
0.0950332 0.282261 0.121523
0.212268 0.256443 0.0616159
1 0 0.479347
0.695674 0.0497292 0.677791
0.190051 0.184573 0.800458
0.189136 0.188052 0.792172
0.240452 0.179446 0.772061
0.338293 0.16022 0.741039
0.476753 0.131655 0.700801
0.633616 0.0999313 0.656748
0.775601 0.0742504 0.618128
1 0 0.42771
0.741604 0.0497444 0.647425
0.207477 0.204044 0.793759
0.21004 0.215244 0.796963
0.267964 0.213458 0.787686
0.372137 0.201236 0.767926
0.518288 0.179477 0.73875
0.685557 0.153948 0.705562
0.840879 0.13344 0.67776
1 0 0.369848
0.770367 0.0967422 0.601434
0.20795 0.268696 0.767971
0.211963 0.289372 0.783261
0.276219 0.295583 0.784268
0.386297 0.291447 0.774639
0.53901 0.277531 0.755642
0.714565 0.259052 0.731853
0.881483 0.245075 0.712444
1 0 0.295995
0.780011 0.189761 0.540902
0.194385 0.379049 0.727489
0.199619 0.409567 0.75491
0.270344 0.423941 0.766415
0.386252 0.427787 0.767376
0.545434 0.421424 0.758343
0.729152 0.409567 0.743191
0.905867 0.400687 0.731533
1 0.0664073 0.216144
0.78381 0.324559 0.47306
0.172686 0.530999 0.678355
0.177966 0.571374 0.717525
0.254231 0.593118 0.738186
0.374075 0.603616 0.747234
0.536507 0.602838 0.745205
0.725505 0.595102 0.736553
0.908309 0.589181 0.728923
1 0.219806 0.156191
0.80235 0.487007 0.42121
0.166705 0.708888 0.641382
0.16556 0.757717 0.689052
0.242695 0.784405 0.714366
0.36228 0.798642 0.727291
0.523888 0.800504 0.727825
0.712047 0.793973 0.720058
0.895827 0.787198 0.712047
1 0.383902 0.137682
0.85745 0.65655 0.407263
0.19588 0.888884 0.63711
0.18114 0.94287 0.68896
0.254002 0.970611 0.713268
0.36791 0.984894 0.724529
0.522927 0.985641 0.722454
0.705287 0.976547 0.710521
0.885405 0.965896 0.69691
1 1 0.661295
0.255161 1 0.665476
0 1 0.57734
0 1 0.394507
0 1 0.122484
0 0.837797 0
0 0.714702 0
0 0.635676 0
0 0.58088 0
1 0.180758 0.538811
0.315999 0.298985 0.579599
0 0.389258 0.61651
0 0.374456 0.556878
0 0.356222 0.499901
0 0.332479 0.43888
0 0.302861 0.371633
0.0721294 0.271351 0.306249
0.18909 0.246525 0.246448
1 0 0.658946
0.686717 0.0320897 0.861418
0.175998 0.170474 0.98819
0.174563 0.174884 0.981521
0.225742 0.166903 0.962814
0.323308 0.148394 0.933455
0.461997 0.120699 0.894713
0.619089 0.0896773 0.852216
0.761608 0.0644083 0.814893
1 0 0.615045
0.737942 0.0348974 0.836576
0.197253 0.191867 0.986419
0.199176 0.204242 0.99202
0.257099 0.203265 0.984421
0.361089 0.191745 0.966339
0.507408 0.17084 0.938949
0.675181 0.145983 0.907729
0.83183 0.126024 0.881407
1 0 0.562112
0.767666 0.0849012 0.796338
0.201328 0.259022 0.965911
0.204685 0.28098 0.983734
0.269078 0.288075 0.986633
0.378897 0.284688 0.979065
0.531762 0.271626 0.962127
0.707942 0.253986 0.94078
0.875334 0.240223 0.923613
1 0 0.49337
0.783062 0.180026 0.740673
0.191012 0.371939 0.930861
0.195911 0.4038 0.961242
0.266712 0.419043 0.974884
0.382544 0.423529 0.978241
0.541375 0.417807 0.971832
0.725704 0.406439 0.959564
0.902754 0.398123 0.950027
1 0.0584573 0.418738
0.789837 0.317327 0.67805
0.173632 0.526558 0.887266
0.177325 0.568017 0.929702
0.253071 0.590341 0.952926
0.373022 0.601175 0.964981
0.535225 0.600885 0.965393
0.723629 0.59353 0.958236
0.906935 0.587427 0.952789
1 0.214389 0.363485
0.810895 0.482322 0.631586
0.16994 0.705989 0.856016
0.165957 0.755779 0.906584
0.242481 0.782193 0.933974
0.361517 0.796674 0.948882
0.522393 0.798795 0.951415
0.710185 0.792004 0.945296
0.894102 0.784756 0.938033
1 0.380056 0.349172
0.866499 0.65272 0.621744
0.199405 0.886305 0.855222
0.180743 0.940551 0.908965
0.252766 0.967941 0.935363
0.365438 0.981857 0.94789
0.5196 0.982635 0.94699
0.701228 0.972992 0.936309
0.880934 0.961364 0.923384
1 1 0.784634
0.193698 1 0.787167
0 1 0.703197
0 1 0.499855
0 0.938003 0.214389
0 0.78529 0.0235447
0 0.682078 0
0 0.610513 0
0 0.561013 0
1 0.125414 0.665751
0.282887 0.267811 0.73402
0 0.368277 0.783795
0 0.356832 0.730404
0 0.341619 0.675258
0 0.320317 0.616709
0 0.292134 0.552148
0.0495003 0.261204 0.48719
0.166476 0.236973 0.427054
1 0 0.839033
0.679057 0.0146944 1
0.162264 0.156603 1
0.160327 0.162036 1
0.211521 0.154925 1
0.308934 0.137163 1
0.447395 0.110277 1
0.605051 0.0801251 1
0.748837 0.0553597 1
1 0 0.80145
0.734508 0.0205692 1
0.187488 0.180102 1
0.188724 0.193606 1
0.246952 0.193652 1
0.350896 0.183062 1
0.497261 0.16289 1
0.665629 0.138827 1
0.823331 0.119448 1
1 0 0.751904
0.767483 0.0730755 0.987015
0.195193 0.249882 1
0.197711 0.273121 1
0.262547 0.281285 1
0.37258 0.278859 1
0.525261 0.266651 1
0.702464 0.249714 1
0.870787 0.236805 1
1 0 0.686717
0.786603 0.171008 0.935088
0.188785 0.365515 1
0.192645 0.398795 1
0.263981 0.415061 1
0.379904 0.420401 1
0.538781 0.415427 1
0.723369 0.404746 1
0.901335 0.397009 1
1 0.0509804 0.615183
0.796475 0.31107 0.875547
0.175189 0.522637 1
0.177539 0.56553 1
0.253361 0.588663 1
0.372946 0.600153 1
0.535103 0.600336 1
0.723552 0.593378 1
0.907469 0.587259 1
1 0.209796 0.562432
0.819837 0.478431 0.830869
0.174075 0.703975 1
0.167452 0.754559 1
0.243732 0.781765 1
0.36228 0.796262 1
0.522255 0.798215 1
0.709651 0.79173 1
0.893935 0.784039 1
1 0.37705 0.548898
0.876356 0.649912 0.820508
0.204105 0.884581 1
0.182162 0.939818 1
0.253239 0.967193 1
0.36495 0.980804 1
0.517601 0.980819 1
0.698665 0.971206 1
0.878325 0.958892 1
